;FLAVOR:Marlin
;TIME:3521
;Filament used: 5.21359m
;Layer height: 0.28
;MINX:59.06
;MINY:58.981
;MINZ:0.28
;MAXX:161.04
;MAXY:160.956
;MAXZ:12.04
;TARGET_MACHINE.NAME:Creality Ender-5
;Generated with Cura_SteamEngine 5.5.0
M82 ;absolute extrusion mode
M201 X500.00 Y500.00 Z100.00 E5000.00 ;Setup machine max acceleration
M203 X500.00 Y500.00 Z10.00 E50.00 ;Setup machine max feedrate
M204 P500.00 R1000.00 T500.00 ;Setup Print/Retract/Travel acceleration
M205 X8.00 Y8.00 Z0.40 E5.00 ;Setup Jerk
M220 S100 ;Reset Feedrate
M221 S100 ;Reset Flowrate

M280 P0 S160 ; BLTouch alarm release
G4 P100; delay for BLTouch

M104 S200 ;heat nozzle to default temp set in material settings
M140 S50 ;Start heating bed

G28 ; home all axes
G29; Detailed Z-Probe

M190 S50 ;Wait for bed to reach temp before proceeding
M109 S200 ;Wait for extruder to reach temp before proceeding

G92 E0 ;Reset Extruder
G1 Z2.0 F3000 ;Move Z Axis up
G1 X10.1 Y20 Z0.28 F5000.0 ;Move to start position
G1 X10.1 Y200.0 Z0.28 F1500.0 E15 ;Draw the first line
G1 X10.4 Y200.0 Z0.28 F5000.0 ;Move to side a little
G1 X10.4 Y20 Z0.28 F1500.0 E30 ;Draw the second line
G92 E0 ;Reset Extruder
;Move Z Axis up
G1 Z2.0 F3000
G92 E0
G92 E0
G1 F2700 E-5
;LAYER_COUNT:43
;LAYER:0
M107
G0 F6000 X73.837 Y74.075 Z0.28
;TYPE:SKIRT
G1 F2700 E0
G1 F1200 X74.74 Y73.18 E0.0592
G1 X75.732 Y72.255 E0.12236
G1 X76.581 Y71.498 E0.17532
G1 X77.594 Y70.644 E0.23702
G1 X78.587 Y69.841 E0.29648
G1 X79.479 Y69.161 E0.34871
G1 X80.606 Y68.338 E0.41369
G1 X81.711 Y67.581 E0.47606
G1 X82.746 Y66.903 E0.53368
G1 X83.711 Y66.31 E0.58642
G1 X84.911 Y65.605 E0.65122
G1 X86.055 Y64.978 E0.71197
G1 X87.174 Y64.397 E0.77068
G1 X88.369 Y63.818 E0.83251
G1 X89.446 Y63.326 E0.88765
G1 X90.51 Y62.874 E0.94148
G1 X91.815 Y62.349 E1.00697
G1 X93.05 Y61.899 E1.06818
G1 X94.16 Y61.517 E1.12284
G1 X95.432 Y61.12 E1.18489
G1 X96.314 Y60.862 E1.22768
G1 X97.883 Y60.454 E1.30317
G1 X99.073 Y60.174 E1.36009
G1 X100.355 Y59.912 E1.42102
G1 X101.623 Y59.68 E1.48105
G1 X102.843 Y59.492 E1.53852
G1 X104.121 Y59.324 E1.59855
G1 X105.383 Y59.194 E1.65762
G1 X106.693 Y59.089 E1.71881
G1 X107.764 Y59.031 E1.76876
G1 X109.181 Y58.985 E1.83477
G1 X110.319 Y58.981 E1.88776
G1 X111.726 Y59.004 E1.95329
G1 X113.029 Y59.068 E2.01404
G1 X114.303 Y59.155 E2.0735
G1 X115.362 Y59.258 E2.12304
G1 X116.933 Y59.443 E2.1967
G1 X117.963 Y59.599 E2.24521
G1 X119.318 Y59.829 E2.3092
G1 X120.564 Y60.076 E2.36835
G1 X121.779 Y60.345 E2.4263
G1 X123.07 Y60.67 E2.48829
G1 X124.282 Y61.005 E2.54684
G1 X125.51 Y61.381 E2.60664
G1 X126.681 Y61.767 E2.66405
G1 X127.922 Y62.215 E2.72549
G1 X129.045 Y62.647 E2.78152
G1 X130.312 Y63.179 E2.8455
G1 X131.109 Y63.529 E2.88604
G1 X132.595 Y64.236 E2.96266
G1 X133.643 Y64.764 E3.0173
G1 X134.648 Y65.307 E3.0705
G1 X135.923 Y66.029 E3.13872
G1 X137.024 Y66.7 E3.19876
G1 X138.077 Y67.37 E3.25688
G1 X139.176 Y68.116 E3.31873
G1 X140.096 Y68.77 E3.37129
G1 X141.199 Y69.601 E3.43559
G1 X142.172 Y70.369 E3.49331
G1 X143.213 Y71.239 E3.55649
G1 X144.083 Y71.998 E3.61025
G1 X145.039 Y72.882 E3.67088
G1 X145.947 Y73.755 E3.72953
G1 X146.875 Y74.703 E3.7913
G1 X147.719 Y75.6 E3.84865
G1 X148.573 Y76.566 E3.90869
G1 X149.38 Y77.516 E3.96673
G1 X150.102 Y78.416 E4.02046
G1 X150.94 Y79.506 E4.08448
G1 X151.692 Y80.545 E4.1442
G1 X152.414 Y81.588 E4.20327
G1 X153.123 Y82.682 E4.26397
G1 X153.775 Y83.735 E4.32164
G1 X154.349 Y84.722 E4.37481
G1 X155.003 Y85.902 E4.43763
G1 X155.527 Y86.912 E4.49061
G1 X156.177 Y88.235 E4.55925
G1 X156.716 Y89.423 E4.61999
G1 X157.191 Y90.534 E4.67626
G1 X157.667 Y91.737 E4.7365
G1 X158.11 Y92.928 E4.79567
G1 X158.468 Y93.985 E4.84763
G1 X158.896 Y95.335 E4.91358
G1 X159.246 Y96.571 E4.9734
G1 X159.568 Y97.802 E5.03265
G1 X159.819 Y98.892 E5.08473
G1 X160.107 Y100.254 E5.14955
G1 X160.333 Y101.521 E5.20948
G1 X160.534 Y102.794 E5.26949
G1 X160.694 Y104.052 E5.32854
G1 X160.828 Y105.313 E5.38759
G1 X160.929 Y106.635 E5.44932
G1 X160.983 Y107.523 E5.49075
G1 X161.029 Y109.009 E5.55998
G1 X161.04 Y110.336 E5.62177
G1 X161.009 Y111.718 E5.68614
G1 X160.955 Y112.925 E5.7424
G1 X160.857 Y114.266 E5.80501
G1 X160.746 Y115.442 E5.86001
G1 X160.587 Y116.736 E5.92072
G1 X160.407 Y117.983 E5.97938
G1 X160.184 Y119.267 E6.04007
G1 X159.953 Y120.443 E6.09587
G1 X159.649 Y121.789 E6.16013
G1 X159.359 Y122.953 E6.21599
G1 X159.016 Y124.186 E6.27558
G1 X158.642 Y125.423 E6.33575
G1 X158.229 Y126.662 E6.39657
G1 X157.833 Y127.771 E6.4514
G1 X157.349 Y129.012 E6.51343
G1 X156.877 Y130.15 E6.57079
G1 X156.353 Y131.32 E6.63049
G1 X155.828 Y132.428 E6.68758
G1 X155.321 Y133.427 E6.73974
G1 X154.64 Y134.704 E6.80713
G1 X153.952 Y135.9 E6.87138
G1 X153.364 Y136.874 E6.92436
G1 X152.65 Y137.987 E6.98593
G1 X151.943 Y139.038 E7.04491
G1 X151.221 Y140.047 E7.10269
G1 X150.42 Y141.12 E7.16504
G1 X149.728 Y141.993 E7.21691
G1 X148.879 Y143.022 E7.27903
G1 X148.005 Y144.016 E7.34066
G1 X147.154 Y144.946 E7.39936
G1 X146.242 Y145.885 E7.46031
G1 X145.351 Y146.764 E7.51859
G1 X144.355 Y147.691 E7.58195
G1 X143.52 Y148.438 E7.63412
G1 X142.482 Y149.313 E7.69733
G1 X141.701 Y149.95 E7.74426
G1 X140.492 Y150.873 E7.81509
G1 X139.506 Y151.591 E7.87188
G1 X138.393 Y152.354 E7.93472
G1 X137.354 Y153.035 E7.99256
G1 X136.389 Y153.628 E8.0453
G1 X135.212 Y154.32 E8.10888
G1 X134.183 Y154.885 E8.16354
G1 X132.968 Y155.519 E8.22736
G1 X131.728 Y156.12 E8.29152
G1 X130.948 Y156.481 E8.33154
G1 X129.435 Y157.128 E8.40817
G1 X128.286 Y157.588 E8.4658
G1 X127.049 Y158.039 E8.52711
G1 X125.936 Y158.422 E8.58191
G1 X124.666 Y158.817 E8.64385
G1 X123.46 Y159.164 E8.70228
G1 X122.229 Y159.48 E8.76146
G1 X120.988 Y159.772 E8.82082
G1 X119.753 Y160.024 E8.87951
G1 X118.477 Y160.258 E8.93992
G1 X117.257 Y160.446 E8.9974
G1 X115.978 Y160.614 E9.05747
G1 X114.717 Y160.744 E9.1165
G1 X113.407 Y160.849 E9.17769
G1 X112.336 Y160.907 E9.22763
G1 X110.918 Y160.953 E9.2937
G1 X109.601 Y160.956 E9.35502
G1 X108.41 Y160.934 E9.41049
G1 X107.099 Y160.872 E9.4716
G1 X105.789 Y160.782 E9.53275
G1 X104.739 Y160.68 E9.58187
G1 X103.17 Y160.495 E9.65543
G1 X102.139 Y160.339 E9.70399
G1 X100.782 Y160.109 E9.76808
G1 X99.541 Y159.863 E9.82699
G1 X98.335 Y159.595 E9.88451
G1 X97.022 Y159.266 E9.94754
G1 X95.874 Y158.95 E10.00299
G1 X94.582 Y158.555 E10.0659
G1 X93.418 Y158.171 E10.12297
G1 X92.16 Y157.716 E10.18526
G1 X91.059 Y157.292 E10.2402
G1 X89.784 Y156.758 E10.30457
G1 X88.684 Y156.269 E10.36062
G1 X87.495 Y155.699 E10.42202
G1 X86.427 Y155.159 E10.47774
G1 X85.24 Y154.515 E10.54063
G1 X84.193 Y153.918 E10.59675
G1 X83.081 Y153.242 E10.65734
G1 X82.019 Y152.566 E10.71596
G1 X80.921 Y151.82 E10.77777
G1 X79.99 Y151.158 E10.83097
G1 X79.06 Y150.46 E10.88511
G1 X77.916 Y149.562 E10.95283
G1 X76.864 Y148.68 E11.01676
G1 X76.016 Y147.94 E11.06916
G1 X75.065 Y147.061 E11.12947
G1 X74.141 Y146.173 E11.18914
G1 X73.206 Y145.218 E11.25137
G1 X72.415 Y144.376 E11.30517
G1 X71.535 Y143.383 E11.36695
G1 X70.737 Y142.446 E11.42426
G1 X70.007 Y141.537 E11.47854
G1 X69.182 Y140.465 E11.54153
G1 X68.511 Y139.539 E11.59478
G1 X67.672 Y138.327 E11.66342
G1 X67.072 Y137.405 E11.71464
G1 X66.328 Y136.209 E11.78023
G1 X65.658 Y135.053 E11.84244
G1 X65.246 Y134.315 E11.8818
G1 X64.493 Y132.865 E11.95788
G1 X63.923 Y131.702 E12.01819
G1 X63.388 Y130.52 E12.0786
G1 X62.912 Y129.414 E12.13467
G1 X62.426 Y128.185 E12.19621
G1 X61.988 Y127.003 E12.25491
G1 X61.63 Y125.945 E12.30691
G1 X61.205 Y124.606 E12.37233
G1 X60.854 Y123.367 E12.43229
G1 X60.532 Y122.136 E12.49154
G1 X60.281 Y121.046 E12.54363
G1 X59.993 Y119.683 E12.60849
G1 X59.767 Y118.415 E12.66847
G1 X59.566 Y117.145 E12.72834
G1 X59.406 Y115.887 E12.78739
G1 X59.273 Y114.637 E12.84592
G1 X59.173 Y113.333 E12.90682
G1 X59.103 Y112.103 E12.96419
G1 X59.072 Y110.982 E13.01641
G1 X59.06 Y109.516 E13.08467
G1 X59.084 Y108.399 E13.1367
G1 X59.143 Y107.034 E13.20032
G1 X59.242 Y105.696 E13.26279
G1 X59.358 Y104.46 E13.3206
G1 X59.513 Y103.202 E13.37962
G1 X59.694 Y101.947 E13.43866
G1 X59.925 Y100.621 E13.50133
G1 X60.147 Y99.495 E13.55477
G1 X60.449 Y98.152 E13.61887
G1 X60.657 Y97.301 E13.65966
G1 X61.083 Y95.756 E13.73429
G1 X61.458 Y94.515 E13.79466
G1 X61.871 Y93.276 E13.85547
G1 X62.266 Y92.168 E13.91024
G1 X62.761 Y90.901 E13.97358
G1 X63.095 Y90.085 E14.01464
G1 X63.747 Y88.618 E14.08939
G1 X64.272 Y87.51 E14.14648
G1 X64.862 Y86.349 E14.20712
G1 X65.468 Y85.219 E14.26683
G1 X66.097 Y84.124 E14.32563
G1 X66.755 Y83.03 E14.38508
G1 X67.358 Y82.091 E14.43704
G1 X68.156 Y80.9 E14.5038
G1 X68.883 Y79.885 E14.56193
G1 X69.667 Y78.835 E14.62295
G1 X70.442 Y77.86 E14.68095
G1 X71.299 Y76.824 E14.74355
G1 X72.136 Y75.876 E14.80244
G1 X72.918 Y75.023 E14.85632
G1 X73.837 Y74.075 E14.9178
G0 F6000 X74.118 Y74.359
G1 F1200 X75.013 Y73.473 E14.97644
G1 X76.005 Y72.548 E15.0396
G1 X76.839 Y71.804 E15.09164
G1 X77.846 Y70.955 E15.15297
G1 X78.83 Y70.159 E15.21191
G1 X79.715 Y69.484 E15.26374
G1 X80.832 Y68.668 E15.32815
G1 X81.93 Y67.916 E15.39012
G1 X82.956 Y67.244 E15.44723
G1 X83.914 Y66.655 E15.49959
G1 X85.103 Y65.956 E15.56382
G1 X86.239 Y65.333 E15.62415
G1 X87.348 Y64.757 E15.68234
G1 X88.535 Y64.182 E15.74375
G1 X89.602 Y63.694 E15.79838
G1 X90.659 Y63.245 E15.85186
G1 X91.952 Y62.725 E15.91675
G1 X93.18 Y62.277 E15.97762
G1 X94.279 Y61.899 E16.03174
G1 X95.544 Y61.504 E16.09345
G1 X96.415 Y61.249 E16.13571
G1 X97.975 Y60.843 E16.21077
G1 X99.153 Y60.566 E16.26711
G1 X100.427 Y60.305 E16.32767
G1 X101.684 Y60.075 E16.38717
G1 X102.895 Y59.889 E16.44422
G1 X104.162 Y59.722 E16.50373
G1 X105.415 Y59.593 E16.56238
G1 X106.714 Y59.488 E16.62307
G1 X107.777 Y59.431 E16.67264
G1 X109.182 Y59.385 E16.73809
G1 X110.312 Y59.381 E16.79071
G1 X111.707 Y59.404 E16.85568
G1 X113.002 Y59.467 E16.91605
G1 X114.264 Y59.553 E16.97495
G1 X115.315 Y59.655 E17.02412
G1 X116.873 Y59.838 E17.09716
G1 X117.896 Y59.993 E17.14534
G1 X119.24 Y60.221 E17.20882
G1 X120.478 Y60.467 E17.26759
G1 X121.681 Y60.733 E17.32496
G1 X122.964 Y61.056 E17.38657
G1 X124.165 Y61.387 E17.44458
G1 X125.385 Y61.761 E17.50399
G1 X126.545 Y62.143 E17.56086
G1 X127.778 Y62.588 E17.6219
G1 X128.89 Y63.016 E17.67738
G1 X130.151 Y63.545 E17.74106
G1 X130.937 Y63.89 E17.78103
G1 X132.415 Y64.593 E17.85724
G1 X133.453 Y65.116 E17.91136
G1 X134.451 Y65.655 E17.96418
G1 X135.715 Y66.371 E18.03182
G1 X136.809 Y67.037 E18.09146
G1 X137.852 Y67.701 E18.14903
G1 X138.944 Y68.442 E18.21048
G1 X139.855 Y69.089 E18.26251
G1 X140.951 Y69.915 E18.32642
G1 X141.916 Y70.676 E18.38364
G1 X142.95 Y71.54 E18.44639
G1 X143.812 Y72.292 E18.49965
G1 X144.762 Y73.17 E18.55989
G1 X145.661 Y74.035 E18.61798
G1 X146.584 Y74.977 E18.67939
G1 X147.419 Y75.865 E18.73615
G1 X148.268 Y76.825 E18.79582
G1 X149.068 Y77.766 E18.85333
G1 X149.785 Y78.66 E18.9067
G1 X150.616 Y79.741 E18.97019
G1 X151.363 Y80.773 E19.02951
G1 X152.078 Y81.806 E19.08801
G1 X152.783 Y82.893 E19.14833
G1 X153.429 Y83.936 E19.20546
G1 X153.999 Y84.916 E19.25825
G1 X154.648 Y86.086 E19.32055
G1 X155.168 Y87.088 E19.37312
G1 X155.813 Y88.4 E19.44119
G1 X156.348 Y89.58 E19.50152
G1 X156.819 Y90.681 E19.55729
G1 X157.292 Y91.877 E19.61717
G1 X157.731 Y93.056 E19.67575
G1 X158.087 Y94.106 E19.72738
G1 X158.511 Y95.444 E19.79274
G1 X158.859 Y96.672 E19.85217
G1 X159.178 Y97.892 E19.91089
G1 X159.428 Y98.975 E19.96264
G1 X159.713 Y100.324 E20.02684
G1 X159.938 Y101.583 E20.0864
G1 X160.137 Y102.844 E20.14584
G1 X160.296 Y104.094 E20.20452
G1 X160.429 Y105.344 E20.26305
G1 X160.53 Y106.659 E20.32446
G1 X160.583 Y107.535 E20.36533
G1 X160.629 Y109.012 E20.43414
G1 X160.64 Y110.327 E20.49537
G1 X160.609 Y111.7 E20.55932
G1 X160.556 Y112.896 E20.61506
G1 X160.459 Y114.228 E20.67725
G1 X160.349 Y115.393 E20.73174
G1 X160.191 Y116.679 E20.79207
G1 X160.013 Y117.915 E20.85022
G1 X159.792 Y119.19 E20.91047
G1 X159.563 Y120.355 E20.96576
G1 X159.261 Y121.692 E21.02958
G1 X158.974 Y122.846 E21.08496
G1 X158.633 Y124.07 E21.14412
G1 X158.263 Y125.296 E21.20375
G1 X157.852 Y126.528 E21.26423
G1 X157.46 Y127.626 E21.31852
G1 X156.979 Y128.859 E21.38014
G1 X156.512 Y129.986 E21.43695
G1 X155.991 Y131.149 E21.49629
G1 X155.471 Y132.247 E21.55286
G1 X154.968 Y133.239 E21.60465
G1 X154.293 Y134.505 E21.67146
G1 X153.61 Y135.693 E21.73526
G1 X153.027 Y136.658 E21.78776
G1 X152.318 Y137.764 E21.84894
G1 X151.618 Y138.805 E21.90735
G1 X150.9 Y139.808 E21.96479
G1 X150.106 Y140.872 E22.0266
G1 X149.42 Y141.738 E22.07805
G1 X148.578 Y142.758 E22.13964
G1 X147.71 Y143.746 E22.20087
G1 X146.867 Y144.667 E22.25901
G1 X145.961 Y145.6 E22.31957
G1 X145.078 Y146.471 E22.37732
G1 X144.088 Y147.393 E22.44032
G1 X143.262 Y148.132 E22.49192
G1 X142.229 Y149.003 E22.55484
G1 X141.458 Y149.632 E22.60117
G1 X140.256 Y150.55 E22.6716
G1 X139.28 Y151.261 E22.72783
G1 X138.174 Y152.019 E22.79026
G1 X137.144 Y152.694 E22.8476
G1 X136.186 Y153.283 E22.89997
G1 X135.02 Y153.969 E22.96296
G1 X133.998 Y154.53 E23.01725
G1 X132.794 Y155.159 E23.0805
G1 X131.56 Y155.757 E23.14435
G1 X130.791 Y156.113 E23.18381
G1 X129.286 Y156.757 E23.26004
G1 X128.149 Y157.212 E23.31706
G1 X126.919 Y157.661 E23.37803
G1 X125.817 Y158.04 E23.4323
G1 X124.555 Y158.433 E23.49385
G1 X123.361 Y158.777 E23.55171
G1 X122.138 Y159.091 E23.6105
G1 X120.908 Y159.38 E23.66933
G1 X119.681 Y159.631 E23.72765
G1 X118.416 Y159.863 E23.78754
G1 X117.205 Y160.049 E23.84459
G1 X115.937 Y160.216 E23.90414
G1 X114.685 Y160.345 E23.96275
G1 X113.386 Y160.45 E24.02343
G1 X112.323 Y160.507 E24.073
G1 X110.917 Y160.553 E24.13851
G1 X109.608 Y160.556 E24.19946
G1 X108.429 Y160.534 E24.25437
G1 X107.126 Y160.473 E24.31511
G1 X105.828 Y160.384 E24.37569
G1 X104.786 Y160.283 E24.42444
G1 X103.23 Y160.1 E24.49739
G1 X102.206 Y159.945 E24.54561
G1 X100.86 Y159.717 E24.60918
G1 X99.628 Y159.472 E24.66767
G1 X98.432 Y159.207 E24.72471
G1 X97.128 Y158.88 E24.78731
G1 X95.991 Y158.568 E24.84221
G1 X94.707 Y158.175 E24.90474
G1 X93.554 Y157.795 E24.96127
G1 X92.304 Y157.343 E25.02316
G1 X91.214 Y156.923 E25.07756
G1 X89.946 Y156.392 E25.14157
G1 X88.857 Y155.908 E25.19706
G1 X87.676 Y155.342 E25.25804
G1 X86.618 Y154.807 E25.31325
G1 X85.438 Y154.167 E25.37575
G1 X84.401 Y153.576 E25.43133
G1 X83.296 Y152.904 E25.49155
G1 X82.244 Y152.235 E25.5496
G1 X81.153 Y151.494 E25.61102
G1 X80.23 Y150.838 E25.66374
G1 X79.307 Y150.145 E25.71749
G1 X78.173 Y149.255 E25.78461
G1 X77.127 Y148.379 E25.84814
G1 X76.287 Y147.646 E25.90005
G1 X75.342 Y146.773 E25.95996
G1 X74.427 Y145.893 E26.01907
G1 X73.498 Y144.944 E26.08091
G1 X72.707 Y144.102 E26.13471
G1 X71.84 Y143.124 E26.19556
G1 X71.049 Y142.195 E26.25238
G1 X70.324 Y141.293 E26.30627
G1 X69.506 Y140.23 E26.36872
G1 X68.84 Y139.311 E26.42157
G1 X68.007 Y138.109 E26.48967
G1 X67.412 Y137.194 E26.54049
G1 X66.674 Y136.008 E26.60553
G1 X66.007 Y134.858 E26.66744
G1 X65.601 Y134.131 E26.70621
G1 X64.852 Y132.689 E26.78187
G1 X64.287 Y131.537 E26.84162
G1 X63.755 Y130.362 E26.90168
G1 X63.284 Y129.267 E26.95718
G1 X62.801 Y128.046 E27.01833
G1 X62.367 Y126.875 E27.07648
G1 X62.011 Y125.824 E27.12815
G1 X61.59 Y124.497 E27.19297
G1 X61.241 Y123.266 E27.25255
G1 X60.922 Y122.046 E27.31127
G1 X60.672 Y120.963 E27.36303
G1 X60.387 Y119.613 E27.42727
G1 X60.162 Y118.353 E27.48687
G1 X59.963 Y117.094 E27.54622
G1 X59.804 Y115.845 E27.60485
G1 X59.672 Y114.606 E27.66287
G1 X59.572 Y113.31 E27.7234
G1 X59.503 Y112.092 E27.7802
G1 X59.472 Y110.979 E27.83205
G1 X59.46 Y109.525 E27.89976
G1 X59.484 Y108.416 E27.95141
G1 X59.542 Y107.063 E28.01447
G1 X59.64 Y105.733 E28.07657
G1 X59.755 Y104.509 E28.13381
G1 X59.909 Y103.259 E28.19246
G1 X60.088 Y102.016 E28.25093
G1 X60.318 Y100.698 E28.31323
G1 X60.537 Y99.583 E28.36614
G1 X60.838 Y98.247 E28.42991
G1 X61.043 Y97.407 E28.47017
G1 X61.466 Y95.872 E28.54431
G1 X61.837 Y94.642 E28.60414
G1 X62.248 Y93.41 E28.66461
G1 X62.639 Y92.313 E28.71884
G1 X63.131 Y91.053 E28.78183
G1 X63.461 Y90.247 E28.82238
G1 X64.109 Y88.789 E28.89667
G1 X64.629 Y87.691 E28.95325
G1 X65.215 Y86.538 E29.01347
G1 X65.815 Y85.418 E29.07263
G1 X66.44 Y84.33 E29.13106
G1 X67.092 Y83.246 E29.18996
G1 X67.69 Y82.314 E29.24153
G1 X68.481 Y81.133 E29.30771
