;FLAVOR:Marlin
;TIME:3790
;Filament used: 5.21352m
;Layer height: 0.28
;MINX:59.638
;MINY:46.433
;MINZ:0.28
;MAXX:161.618
;MAXY:148.407
;MAXZ:12.04
;TARGET_MACHINE.NAME:Creality Ender-5
;Generated with Cura_SteamEngine 5.5.0
M82 ;absolute extrusion mode
M201 X500.00 Y500.00 Z100.00 E5000.00 ;Setup machine max acceleration
M203 X500.00 Y500.00 Z10.00 E50.00 ;Setup machine max feedrate
M204 P500.00 R1000.00 T500.00 ;Setup Print/Retract/Travel acceleration
M205 X8.00 Y8.00 Z0.40 E5.00 ;Setup Jerk
M220 S100 ;Reset Feedrate
M221 S100 ;Reset Flowrate

M280 P0 S160 ; BLTouch alarm release
G4 P100; delay for BLTouch

M104 S240 ;heat nozzle to default temp set in material settings
M140 S70 ;Start heating bed

G28 ; home all axes
G29; Detailed Z-Probe

M190 S70 ;Wait for bed to reach temp before proceeding
M109 S240 ;Wait for extruder to reach temp before proceeding

G92 E0 ;Reset Extruder
G1 Z2.0 F3000 ;Move Z Axis up
G1 X10.1 Y20 Z0.28 F5000.0 ;Move to start position
G1 X10.1 Y200.0 Z0.28 F1500.0 E15 ;Draw the first line
G1 X10.4 Y200.0 Z0.28 F5000.0 ;Move to side a little
G1 X10.4 Y20 Z0.28 F1500.0 E30 ;Draw the second line
G92 E0 ;Reset Extruder
;Move Z Axis up
G1 Z2.0 F3000
G92 E0
G92 E0
G1 F2700 E-5
;LAYER_COUNT:43
;LAYER:0
M107
G0 F6000 X72.56 Y63.5 Z0.28
;TYPE:SKIRT
G1 F2700 E0
G1 F900 X73.554 Y62.411 E0.06866
G1 X74.415 Y61.525 E0.12618
G1 X75.325 Y60.626 E0.18575
G1 X76.27 Y59.746 E0.24587
G1 X77.206 Y58.908 E0.30437
G1 X78.166 Y58.1 E0.3628
G1 X79.15 Y57.304 E0.42174
G1 X80.049 Y56.619 E0.47436
G1 X81.188 Y55.787 E0.54004
G1 X82.293 Y55.03 E0.60241
G1 X83.326 Y54.355 E0.65987
G1 X84.444 Y53.67 E0.72093
G1 X85.495 Y53.053 E0.77767
G1 X86.466 Y52.522 E0.82921
G1 X87.758 Y51.846 E0.89711
G1 X88.916 Y51.284 E0.95704
G1 X90.017 Y50.781 E1.01341
G1 X91.289 Y50.241 E1.07775
G1 X92.374 Y49.809 E1.13213
G1 X93.628 Y49.351 E1.1943
G1 X94.743 Y48.968 E1.24919
G1 X96.009 Y48.574 E1.31093
G1 X97.217 Y48.226 E1.36947
G1 X98.459 Y47.907 E1.42918
G1 X99.705 Y47.614 E1.48878
G1 X101.02 Y47.346 E1.55127
G1 X102.144 Y47.14 E1.60448
G1 X103.281 Y46.965 E1.65805
G1 X104.661 Y46.78 E1.72288
G1 X105.961 Y46.646 E1.78374
G1 X107.272 Y46.541 E1.84498
G1 X108.344 Y46.483 E1.89497
G1 X109.759 Y46.437 E1.96089
G1 X110.896 Y46.433 E2.01383
G1 X112.283 Y46.456 E2.07843
G1 X113.853 Y46.533 E2.15162
G1 X115.078 Y46.623 E2.20881
G1 X117.03 Y46.833 E2.30023
G1 X118.702 Y47.076 E2.37891
G1 X119.885 Y47.277 E2.43478
G1 X121.21 Y47.543 E2.49771
G1 X122.371 Y47.801 E2.55309
G1 X123.65 Y48.123 E2.6145
G1 X124.832 Y48.447 E2.67157
G1 X125.9 Y48.774 E2.72358
G1 X127.259 Y49.219 E2.79017
G1 X128.511 Y49.672 E2.85217
G1 X129.619 Y50.099 E2.90746
G1 X130.676 Y50.539 E2.96077
G1 X131.959 Y51.106 E3.02609
G1 X133.15 Y51.677 E3.08759
G1 X134.272 Y52.242 E3.14608
G1 X135.386 Y52.847 E3.20511
G1 X136.508 Y53.485 E3.26521
G1 X137.455 Y54.061 E3.31682
G1 X138.653 Y54.821 E3.38289
G1 X139.755 Y55.569 E3.44491
G1 X140.691 Y56.234 E3.49837
G1 X141.587 Y56.907 E3.55055
G1 X142.774 Y57.84 E3.62085
G1 X143.649 Y58.569 E3.67388
G1 X144.661 Y59.449 E3.73633
G1 X145.645 Y60.357 E3.79868
G1 X146.521 Y61.202 E3.85535
G1 X147.45 Y62.151 E3.91719
G1 X148.281 Y63.035 E3.97368
G1 X149.141 Y64.004 E4.03401
G1 X149.954 Y64.962 E4.09252
G1 X150.8 Y66.017 E4.15549
G1 X151.333 Y66.708 E4.19612
G1 X152.269 Y67.997 E4.2703
G1 X152.992 Y69.04 E4.32939
G1 X153.718 Y70.161 E4.39158
G1 X154.324 Y71.14 E4.4452
G1 X155.026 Y72.349 E4.51029
G1 X155.59 Y73.37 E4.56461
G1 X156.217 Y74.583 E4.62819
G1 X156.729 Y75.631 E4.6825
G1 X157.295 Y76.876 E4.74618
G1 X157.769 Y77.984 E4.8023
G1 X158.235 Y79.163 E4.86133
G1 X158.696 Y80.405 E4.92302
G1 X159.099 Y81.6 E4.98174
G1 X159.473 Y82.783 E5.03951
G1 X159.823 Y84.019 E5.09933
G1 X160.15 Y85.271 E5.15958
G1 X160.428 Y86.485 E5.21758
G1 X160.683 Y87.694 E5.27511
G1 X160.911 Y88.973 E5.33561
G1 X161.112 Y90.246 E5.39562
G1 X161.272 Y91.504 E5.45467
G1 X161.406 Y92.765 E5.51371
G1 X161.507 Y94.087 E5.57545
G1 X161.561 Y94.975 E5.61688
G1 X161.607 Y96.461 E5.6861
G1 X161.618 Y97.788 E5.7479
G1 X161.587 Y99.17 E5.81227
G1 X161.534 Y100.349 E5.86722
G1 X161.437 Y101.686 E5.92964
G1 X161.325 Y102.881 E5.98553
G1 X161.164 Y104.192 E6.04703
G1 X160.984 Y105.438 E6.10565
G1 X160.8 Y106.507 E6.15616
G1 X160.522 Y107.937 E6.224
G1 X160.227 Y109.241 E6.28625
G1 X159.937 Y110.405 E6.34211
G1 X159.594 Y111.638 E6.4017
G1 X159.22 Y112.875 E6.46188
G1 X158.807 Y114.114 E6.52269
G1 X158.412 Y115.222 E6.57746
G1 X157.917 Y116.489 E6.6408
G1 X157.583 Y117.305 E6.68186
G1 X156.931 Y118.772 E6.75661
G1 X156.406 Y119.88 E6.8137
G1 X155.899 Y120.879 E6.86587
G1 X155.218 Y122.156 E6.93326
G1 X154.535 Y123.343 E6.99703
G1 X153.914 Y124.371 E7.05295
G1 X153.208 Y125.469 E7.11374
G1 X152.524 Y126.485 E7.17077
G1 X151.782 Y127.523 E7.23018
G1 X151.012 Y128.554 E7.2901
G1 X150.308 Y129.441 E7.34283
G1 X149.422 Y130.515 E7.40766
G1 X148.656 Y131.387 E7.4617
G1 X147.986 Y132.125 E7.50812
G1 X146.801 Y133.357 E7.58772
G1 X145.909 Y134.235 E7.646
G1 X144.985 Y135.095 E7.70477
G1 X144.048 Y135.933 E7.76331
G1 X143.085 Y136.743 E7.8219
G1 X142.081 Y137.554 E7.882
G1 X141.066 Y138.327 E7.94141
G1 X140.075 Y139.049 E7.9985
G1 X138.993 Y139.792 E8.05962
G1 X138.215 Y140.306 E8.10304
G1 X136.969 Y141.079 E8.17131
G1 X135.79 Y141.772 E8.235
G1 X134.761 Y142.337 E8.28966
G1 X133.511 Y142.988 E8.35528
G1 X131.912 Y143.758 E8.43792
G1 X131.485 Y143.952 E8.45976
G1 X130.022 Y144.576 E8.53382
G1 X128.863 Y145.039 E8.59194
G1 X127.797 Y145.431 E8.64482
G1 X126.512 Y145.874 E8.70812
G1 X125.243 Y146.269 E8.77
G1 X124.041 Y146.616 E8.82826
G1 X122.98 Y146.89 E8.87928
G1 X121.566 Y147.224 E8.94694
G1 X120.322 Y147.478 E9.00606
G1 X119.082 Y147.705 E9.06476
G1 X117.793 Y147.904 E9.12549
G1 X116.539 Y148.068 E9.18438
G1 X115.245 Y148.201 E9.24495
G1 X114.418 Y148.272 E9.2836
G1 X112.67 Y148.369 E9.36512
G1 X111.506 Y148.404 E9.41934
G1 X110.182 Y148.407 E9.481
G1 X108.959 Y148.385 E9.53795
G1 X107.411 Y148.31 E9.61012
G1 X106.299 Y148.229 E9.66204
G1 X105.217 Y148.121 E9.71267
G1 X103.893 Y147.966 E9.77474
G1 X102.623 Y147.777 E9.83453
G1 X101.31 Y147.553 E9.89655
G1 X100.234 Y147.339 E9.94763
G1 X98.933 Y147.052 E10.00967
G1 X97.599 Y146.718 E10.0737
G1 X96.429 Y146.395 E10.13022
G1 X95.164 Y146.008 E10.19182
G1 X94 Y145.624 E10.2489
G1 X92.738 Y145.168 E10.31138
G1 X91.637 Y144.744 E10.36632
G1 X90.362 Y144.21 E10.43068
G1 X89.262 Y143.721 E10.48673
G1 X88.073 Y143.151 E10.54813
G1 X87.005 Y142.611 E10.60386
G1 X85.818 Y141.967 E10.66674
G1 X84.772 Y141.37 E10.72282
G1 X83.663 Y140.698 E10.7832
G1 X82.639 Y140.046 E10.83973
G1 X81.679 Y139.395 E10.89374
G1 X80.516 Y138.571 E10.96011
G1 X79.62 Y137.896 E11.01234
G1 X78.794 Y137.255 E11.06103
G1 X77.468 Y136.155 E11.14125
G1 X76.592 Y135.392 E11.19535
G1 X75.616 Y134.489 E11.25726
G1 X74.764 Y133.666 E11.31242
G1 X73.846 Y132.732 E11.3734
G1 X72.961 Y131.79 E11.43359
G1 X72.098 Y130.817 E11.49415
G1 X71.303 Y129.88 E11.55137
G1 X70.469 Y128.838 E11.61351
G1 X69.749 Y127.899 E11.66861
G1 X68.949 Y126.792 E11.73221
G1 X68.256 Y125.791 E11.7889
G1 X67.538 Y124.682 E11.85042
G1 X66.923 Y123.689 E11.90481
G1 X66.234 Y122.502 E11.96871
G1 X65.67 Y121.48 E12.02307
G1 X65.069 Y120.316 E12.08407
G1 X64.648 Y119.469 E12.12811
G1 X64.042 Y118.148 E12.19578
G1 X63.487 Y116.857 E12.26122
G1 X63.021 Y115.678 E12.32025
G1 X62.56 Y114.436 E12.38194
G1 X62.157 Y113.241 E12.44066
G1 X61.782 Y112.057 E12.49849
G1 X61.482 Y110.998 E12.54974
G1 X61.191 Y109.908 E12.60228
G1 X60.818 Y108.327 E12.67792
G1 X60.573 Y107.149 E12.73394
G1 X60.334 Y105.805 E12.79751
G1 X60.153 Y104.652 E12.85185
G1 X59.985 Y103.342 E12.91335
G1 X59.849 Y102.071 E12.97287
G1 X59.752 Y100.797 E13.03237
G1 X59.682 Y99.556 E13.09025
G1 X59.649 Y98.386 E13.14475
G1 X59.638 Y97.054 E13.20677
G1 X59.669 Y95.672 E13.27114
G1 X59.723 Y94.464 E13.32745
G1 X59.821 Y93.123 E13.39006
G1 X59.932 Y91.947 E13.44506
G1 X60.069 Y90.825 E13.49769
G1 X60.271 Y89.404 E13.56452
G1 X60.494 Y88.125 E13.62498
G1 X60.66 Y87.26 E13.66599
G1 X61.02 Y85.641 E13.74322
G1 X61.315 Y84.449 E13.8004
G1 X61.614 Y83.371 E13.85249
G1 X62.016 Y82.025 E13.9179
G1 X62.445 Y80.738 E13.98107
G1 X62.833 Y79.651 E14.03481
G1 X63.332 Y78.37 E14.09883
G1 X63.798 Y77.246 E14.15549
G1 X64.244 Y76.244 E14.20656
G1 X64.88 Y74.898 E14.27588
G1 X65.403 Y73.87 E14.32958
G1 X66.045 Y72.673 E14.39283
G1 X66.702 Y71.529 E14.45426
G1 X67.163 Y70.758 E14.49609
G1 X68.047 Y69.372 E14.57264
G1 X68.725 Y68.366 E14.62913
G1 X69.521 Y67.254 E14.6928
G1 X70.247 Y66.285 E14.74918
G1 X71.055 Y65.268 E14.80967
G1 X71.796 Y64.373 E14.86377
G1 X72.56 Y63.5 E14.91779
G0 F6000 X72.855 Y63.77
G1 F900 X73.841 Y62.69 E14.98589
G1 X74.696 Y61.81 E15.04302
G1 X75.598 Y60.919 E15.10206
G1 X76.537 Y60.044 E15.16182
G1 X77.464 Y59.214 E15.21976
G1 X78.418 Y58.411 E15.27782
G1 X79.393 Y57.622 E15.33623
G1 X80.285 Y56.942 E15.38845
G1 X81.414 Y56.117 E15.45357
G1 X82.512 Y55.365 E15.51553
G1 X83.535 Y54.696 E15.57245
G1 X84.646 Y54.015 E15.63313
G1 X85.687 Y53.404 E15.68934
G1 X86.651 Y52.876 E15.74052
G1 X87.932 Y52.206 E15.80783
G1 X89.083 Y51.648 E15.86739
G1 X90.173 Y51.149 E15.92321
G1 X91.437 Y50.613 E15.98714
G1 X92.511 Y50.185 E16.04098
G1 X93.758 Y49.729 E16.1028
G1 X94.862 Y49.35 E16.15715
G1 X96.12 Y48.958 E16.21851
G1 X97.316 Y48.613 E16.27647
G1 X98.551 Y48.296 E16.33584
G1 X99.785 Y48.006 E16.39487
G1 X101.092 Y47.739 E16.45699
G1 X102.205 Y47.535 E16.50967
G1 X103.334 Y47.361 E16.56287
G1 X104.702 Y47.178 E16.62713
G1 X105.993 Y47.045 E16.68757
G1 X107.293 Y46.94 E16.7483
G1 X108.357 Y46.883 E16.79791
G1 X109.76 Y46.837 E16.86328
G1 X110.889 Y46.833 E16.91585
G1 X112.264 Y46.856 E16.97988
G1 X113.824 Y46.932 E17.05261
G1 X115.035 Y47.021 E17.10915
G1 X116.973 Y47.229 E17.19991
G1 X118.635 Y47.47 E17.27811
G1 X119.806 Y47.669 E17.33342
G1 X121.123 Y47.933 E17.39596
G1 X122.273 Y48.189 E17.45082
G1 X123.544 Y48.509 E17.51185
G1 X124.715 Y48.83 E17.56839
G1 X125.776 Y49.154 E17.62005
G1 X127.123 Y49.595 E17.68604
G1 X128.367 Y50.045 E17.74764
G1 X129.465 Y50.468 E17.80243
G1 X130.514 Y50.905 E17.85535
G1 X131.786 Y51.467 E17.9201
G1 X132.97 Y52.034 E17.98123
G1 X134.081 Y52.594 E18.03916
G1 X135.188 Y53.195 E18.09782
G1 X136.3 Y53.827 E18.15737
G1 X137.241 Y54.399 E18.20865
G1 X138.428 Y55.152 E18.27411
G1 X139.523 Y55.895 E18.33572
G1 X140.451 Y56.554 E18.38872
G1 X141.34 Y57.221 E18.44047
G1 X142.518 Y58.147 E18.51025
G1 X143.387 Y58.871 E18.56291
G1 X144.39 Y59.743 E18.6248
G1 X145.367 Y60.645 E18.68672
G1 X146.235 Y61.482 E18.74286
G1 X147.159 Y62.425 E18.80434
G1 X147.982 Y63.3 E18.86027
G1 X148.836 Y64.263 E18.92021
G1 X149.642 Y65.212 E18.97818
G1 X150.483 Y66.262 E19.04083
G1 X151.009 Y66.943 E19.08089
G1 X151.94 Y68.225 E19.15467
G1 X152.656 Y69.258 E19.2132
G1 X153.378 Y70.372 E19.27501
G1 X153.978 Y71.341 E19.32808
G1 X154.676 Y72.542 E19.39276
G1 X155.235 Y73.554 E19.4466
G1 X155.858 Y74.759 E19.50976
G1 X156.365 Y75.797 E19.56355
G1 X156.927 Y77.033 E19.62678
G1 X157.397 Y78.131 E19.68239
G1 X157.86 Y79.302 E19.74102
G1 X158.317 Y80.533 E19.80217
G1 X158.718 Y81.721 E19.86055
G1 X159.088 Y82.892 E19.91774
G1 X159.436 Y84.12 E19.97717
G1 X159.76 Y85.36 E20.03685
G1 X160.037 Y86.567 E20.09451
G1 X160.289 Y87.764 E20.15147
G1 X160.516 Y89.035 E20.21159
G1 X160.715 Y90.296 E20.27103
G1 X160.874 Y91.546 E20.32971
G1 X161.007 Y92.796 E20.38824
G1 X161.108 Y94.111 E20.44965
G1 X161.161 Y94.987 E20.49052
G1 X161.207 Y96.464 E20.55933
G1 X161.218 Y97.779 E20.62056
G1 X161.187 Y99.152 E20.68451
G1 X161.135 Y100.32 E20.73895
G1 X161.039 Y101.649 E20.801
G1 X160.928 Y102.832 E20.85632
G1 X160.768 Y104.135 E20.91745
G1 X160.59 Y105.37 E20.97555
G1 X160.407 Y106.431 E21.02569
G1 X160.132 Y107.849 E21.09295
G1 X159.839 Y109.144 E21.15477
G1 X159.552 Y110.298 E21.21014
G1 X159.211 Y111.522 E21.26931
G1 X158.841 Y112.748 E21.32894
G1 X158.43 Y113.98 E21.38941
G1 X158.039 Y115.077 E21.44364
G1 X157.547 Y116.337 E21.50663
G1 X157.217 Y117.143 E21.54718
G1 X156.569 Y118.601 E21.62148
G1 X156.049 Y119.699 E21.67805
G1 X155.546 Y120.691 E21.72984
G1 X154.871 Y121.957 E21.79664
G1 X154.193 Y123.136 E21.85997
G1 X153.577 Y124.155 E21.91542
G1 X152.876 Y125.246 E21.9758
G1 X152.199 Y126.252 E22.03227
G1 X151.461 Y127.284 E22.09134
G1 X150.699 Y128.305 E22.15067
G1 X150 Y129.186 E22.20303
G1 X149.121 Y130.251 E22.26733
G1 X148.36 Y131.118 E22.32105
G1 X147.698 Y131.848 E22.36694
G1 X146.52 Y133.072 E22.44604
G1 X145.637 Y133.942 E22.50376
G1 X144.718 Y134.797 E22.56221
G1 X143.791 Y135.627 E22.62015
G1 X142.834 Y136.432 E22.67838
G1 X141.839 Y137.236 E22.73794
G1 X140.831 Y138.004 E22.79695
G1 X139.849 Y138.719 E22.85351
G1 X138.773 Y139.458 E22.9143
G1 X138.004 Y139.966 E22.95721
G1 X136.766 Y140.734 E23.02505
G1 X135.598 Y141.421 E23.08815
G1 X134.576 Y141.982 E23.14243
G1 X133.337 Y142.628 E23.2075
G1 X131.746 Y143.394 E23.28972
G1 X131.328 Y143.584 E23.3111
G1 X129.873 Y144.205 E23.38476
G1 X128.725 Y144.664 E23.44234
G1 X127.667 Y145.053 E23.49482
G1 X126.393 Y145.492 E23.55757
G1 X125.132 Y145.885 E23.61907
G1 X123.941 Y146.229 E23.6768
G1 X122.888 Y146.501 E23.72744
G1 X121.486 Y146.832 E23.79452
G1 X120.25 Y147.085 E23.85326
G1 X119.021 Y147.31 E23.91144
G1 X117.741 Y147.507 E23.97175
G1 X116.498 Y147.67 E24.03012
G1 X115.211 Y147.802 E24.09036
G1 X114.384 Y147.873 E24.12901
G1 X112.658 Y147.969 E24.20951
G1 X111.505 Y148.004 E24.26322
G1 X110.189 Y148.007 E24.3245
G1 X108.978 Y147.985 E24.3809
G1 X107.44 Y147.911 E24.4526
G1 X106.339 Y147.831 E24.504
G1 X105.264 Y147.724 E24.5543
G1 X103.952 Y147.57 E24.61581
G1 X102.69 Y147.383 E24.67522
G1 X101.388 Y147.161 E24.73672
G1 X100.32 Y146.948 E24.78743
G1 X99.03 Y146.664 E24.84894
G1 X97.705 Y146.332 E24.91254
G1 X96.546 Y146.013 E24.96852
G1 X95.289 Y145.628 E25.02973
G1 X94.136 Y145.248 E25.08626
G1 X92.882 Y144.795 E25.14835
G1 X91.792 Y144.375 E25.20274
G1 X90.524 Y143.844 E25.26675
G1 X89.435 Y143.36 E25.32224
G1 X88.254 Y142.794 E25.38322
G1 X87.196 Y142.259 E25.43843
G1 X86.016 Y141.619 E25.50094
G1 X84.979 Y141.028 E25.55651
G1 X83.878 Y140.36 E25.61648
G1 X82.864 Y139.715 E25.67244
G1 X81.91 Y139.068 E25.72611
G1 X80.757 Y138.252 E25.79189
G1 X79.865 Y137.58 E25.84389
G1 X79.049 Y136.947 E25.89198
G1 X77.731 Y135.854 E25.97171
G1 X76.864 Y135.098 E26.02527
G1 X75.894 Y134.201 E26.08679
G1 X75.049 Y133.386 E26.14146
G1 X74.137 Y132.458 E26.20204
G1 X73.26 Y131.525 E26.26167
G1 X72.403 Y130.558 E26.32183
G1 X71.615 Y129.63 E26.37852
G1 X70.786 Y128.595 E26.44027
G1 X70.073 Y127.665 E26.49484
G1 X69.278 Y126.564 E26.55807
G1 X68.592 Y125.573 E26.61419
G1 X67.878 Y124.471 E26.67534
G1 X67.269 Y123.488 E26.72918
G1 X66.584 Y122.309 E26.79267
G1 X66.025 Y121.296 E26.84655
G1 X65.427 Y120.138 E26.90724
G1 X65.012 Y119.302 E26.9507
G1 X64.406 Y117.981 E27.01837
G1 X63.859 Y116.71 E27.0828
G1 X63.396 Y115.539 E27.14144
G1 X62.939 Y114.308 E27.20258
G1 X62.538 Y113.12 E27.26096
G1 X62.167 Y111.948 E27.31821
G1 X61.868 Y110.895 E27.36918
G1 X61.58 Y109.816 E27.42118
G1 X61.21 Y108.245 E27.49633
G1 X60.967 Y107.079 E27.55179
G1 X60.729 Y105.743 E27.61498
G1 X60.55 Y104.601 E27.66881
G1 X60.383 Y103.299 E27.72993
G1 X60.248 Y102.04 E27.78889
G1 X60.151 Y100.775 E27.84797
G1 X60.082 Y99.545 E27.90533
G1 X60.049 Y98.383 E27.95946
G1 X60.038 Y97.063 E28.02093
G1 X60.069 Y95.69 E28.08488
G1 X60.122 Y94.493 E28.14067
G1 X60.219 Y93.161 E28.20286
G1 X60.329 Y91.995 E28.25739
G1 X60.465 Y90.881 E28.30965
G1 X60.665 Y89.473 E28.37587
G1 X60.887 Y88.2 E28.43604
G1 X61.05 Y87.347 E28.47648
G1 X61.408 Y85.737 E28.55328
G1 X61.7 Y84.556 E28.60993
G1 X61.997 Y83.486 E28.66163
G1 X62.396 Y82.151 E28.72651
G1 X62.822 Y80.872 E28.78928
G1 X63.206 Y79.796 E28.84248
G1 X63.701 Y78.523 E28.90608
G1 X64.163 Y77.409 E28.96224
G1 X64.606 Y76.415 E29.01291
G1 X65.237 Y75.079 E29.08171
G1 X65.756 Y74.059 E29.135
G1 X66.392 Y72.872 E29.19771
G1 X67.045 Y71.734 E29.2588
G1 X67.5 Y70.973 E29.30009
G1 X68.379 Y69.595 E29.3762
G1 X69.05 Y68.599 E29.43212
G1 X69.841 Y67.494 E29.4954
G1 X70.56 Y66.534 E29.55124
