;FLAVOR:Marlin
;TIME:16457
;Filament used: 16.0057m
;Layer height: 0.2
;MINX:49
;MINY:16.389
;MINZ:0.2
;MAXX:171
;MAXY:150.574
;MAXZ:63.8
;Generated with Cura_SteamEngine 4.9.1
M140 S70
M105
M190 S70
M104 S240
M105
M109 S240
M82 ;absolute extrusion mode
M201 X500.00 Y500.00 Z100.00 E5000.00 ;Setup machine max acceleration
M203 X500.00 Y500.00 Z10.00 E50.00 ;Setup machine max feedrate
M204 P500.00 R1000.00 T500.00 ;Setup Print/Retract/Travel acceleration
M205 X8.00 Y8.00 Z0.40 E5.00 ;Setup Jerk
M220 S100 ;Reset Feedrate
M221 S100 ;Reset Flowrate

G28 ;Home

G92 E0 ;Reset Extruder
G1 Z2.0 F3000 ;Move Z Axis up
G1 X10.1 Y20 Z0.28 F5000.0 ;Move to start position
G1 X10.1 Y200.0 Z0.28 F1500.0 E15 ;Draw the first line
G1 X10.4 Y200.0 Z0.28 F5000.0 ;Move to side a little
G1 X10.4 Y20 Z0.28 F1500.0 E30 ;Draw the second line
G92 E0 ;Reset Extruder
G1 Z2.0 F3000 ;Move Z Axis up

G92 E0
G92 E0
G1 F2700 E-5
;LAYER_COUNT:320
;LAYER:0
M107
G0 F6000 X50.055 Y22.717 Z0.2
;TYPE:SKIRT
G1 F2700 E0
G1 F900 X50.49 Y21.886 E0.0312
G1 X50.995 Y21.095 E0.06241
G1 X51.564 Y20.35 E0.09359
G1 X52.196 Y19.656 E0.12481
G1 X52.884 Y19.019 E0.15599
G1 X53.623 Y18.442 E0.18718
G1 X54.409 Y17.931 E0.21836
G1 X55.236 Y17.488 E0.24956
G1 X56.098 Y17.118 E0.28076
G1 X56.988 Y16.822 E0.31196
G1 X57.9 Y16.603 E0.34315
G1 X58.827 Y16.463 E0.37434
G1 X59.685 Y16.404 E0.40294
G1 X59.99 Y16.395 E0.41309
G1 X60.314 Y16.39 E0.42387
G1 X159.293 Y16.389 E3.71592
G1 X160.149 Y16.4 E3.7444
G1 X161.085 Y16.454 E3.77558
G1 X162.013 Y16.586 E3.80675
G1 X162.927 Y16.798 E3.83796
G1 X163.819 Y17.087 E3.86915
G1 X164.684 Y17.45 E3.90035
G1 X165.514 Y17.886 E3.93153
G1 X166.305 Y18.391 E3.96274
G1 X167.049 Y18.962 E3.99394
G1 X167.742 Y19.594 E4.02513
G1 X168.379 Y20.282 E4.05632
G1 X168.954 Y21.023 E4.08751
G1 X169.465 Y21.809 E4.1187
G1 X169.907 Y22.637 E4.14991
G1 X170.276 Y23.499 E4.1811
G1 X170.571 Y24.389 E4.21228
G1 X170.789 Y25.301 E4.24347
G1 X170.929 Y26.229 E4.27469
G1 X170.987 Y27.089 E4.30336
G1 X170.996 Y27.408 E4.31397
G1 X171 Y27.718 E4.32428
G1 X170.999 Y138.974 E8.02467
G1 X170.99 Y139.701 E8.04885
G1 X170.939 Y140.638 E8.08006
G1 X170.807 Y141.566 E8.11124
G1 X170.598 Y142.48 E8.14242
G1 X170.311 Y143.373 E8.17362
G1 X169.949 Y144.239 E8.20484
G1 X169.515 Y145.07 E8.23602
G1 X169.011 Y145.861 E8.26722
G1 X168.442 Y146.606 E8.2984
G1 X167.811 Y147.301 E8.32962
G1 X167.124 Y147.939 E8.3608
G1 X166.385 Y148.516 E8.39199
G1 X165.599 Y149.028 E8.42319
G1 X164.773 Y149.471 E8.45436
G1 X163.911 Y149.843 E8.48559
G1 X163.022 Y150.139 E8.51675
G1 X162.11 Y150.359 E8.54795
G1 X161.183 Y150.5 E8.57914
G1 X160.299 Y150.561 E8.60861
G1 X159.978 Y150.57 E8.61929
G1 X159.67 Y150.574 E8.62954
G1 X60.565 Y150.573 E11.92578
G1 X59.867 Y150.564 E11.949
G1 X58.931 Y150.512 E11.98018
G1 X58.002 Y150.38 E12.01139
G1 X57.088 Y150.17 E12.04258
G1 X56.195 Y149.883 E12.07378
G1 X55.33 Y149.52 E12.10498
G1 X54.499 Y149.086 E12.13616
G1 X53.708 Y148.582 E12.16736
G1 X52.963 Y148.012 E12.19856
G1 X52.269 Y147.381 E12.22975
G1 X51.632 Y146.694 E12.26091
G1 X51.055 Y145.954 E12.29212
G1 X50.543 Y145.168 E12.32332
G1 X50.1 Y144.341 E12.35453
G1 X49.729 Y143.48 E12.38571
G1 X49.433 Y142.59 E12.41691
G1 X49.214 Y141.678 E12.4481
G1 X49.073 Y140.751 E12.47929
G1 X49.013 Y139.862 E12.50892
G1 X49.004 Y139.529 E12.52
G1 X49 Y139.232 E12.52988
G1 X49.001 Y27.931 E16.23177
G1 X49.01 Y27.253 E16.25432
G1 X49.062 Y26.317 E16.2855
G1 X49.194 Y25.388 E16.31671
G1 X49.405 Y24.474 E16.34791
G1 X49.693 Y23.581 E16.37912
G1 X50.055 Y22.717 E16.41027
G0 F6000 X50.454 Y22.811
G1 F900 X50.888 Y21.999 E16.4409
G1 X51.391 Y21.228 E16.47151
G1 X51.959 Y20.503 E16.50215
G1 X52.588 Y19.831 E16.53276
G1 X53.272 Y19.215 E16.56338
G1 X54.008 Y18.661 E16.59402
G1 X54.789 Y18.174 E16.62463
G1 X55.609 Y17.755 E16.65526
G1 X56.462 Y17.41 E16.68586
G1 X57.342 Y17.14 E16.71648
G1 X58.243 Y16.947 E16.74712
G1 X59.156 Y16.833 E16.77773
G1 X59.696 Y16.804 E16.79571
G1 X60.001 Y16.795 E16.80586
G1 X60.314 Y16.79 E16.81627
G1 X159.293 Y16.789 E20.10833
G1 X160.143 Y16.8 E20.1366
G1 X161.062 Y16.853 E20.16722
G1 X161.973 Y16.986 E20.19784
G1 X162.869 Y17.197 E20.22846
G1 X163.743 Y17.485 E20.25906
G1 X164.59 Y17.848 E20.28971
G1 X165.401 Y18.283 E20.32032
G1 X166.171 Y18.787 E20.35093
G1 X166.895 Y19.356 E20.38156
G1 X167.567 Y19.986 E20.41219
G1 X168.182 Y20.671 E20.44281
G1 X168.735 Y21.407 E20.47343
G1 X169.222 Y22.188 E20.50404
G1 X169.639 Y23.009 E20.53467
G1 X169.984 Y23.863 E20.5653
G1 X170.253 Y24.743 E20.59591
G1 X170.445 Y25.644 E20.62655
G1 X170.558 Y26.557 E20.65715
G1 X170.587 Y27.1 E20.67524
G1 X170.596 Y27.419 E20.68585
G1 X170.6 Y27.718 E20.69579
G1 X170.599 Y138.969 E24.39602
G1 X170.59 Y139.696 E24.4202
G1 X170.539 Y140.615 E24.45081
G1 X170.408 Y141.527 E24.48146
G1 X170.198 Y142.423 E24.51207
G1 X169.912 Y143.298 E24.54268
G1 X169.551 Y144.145 E24.57331
G1 X169.117 Y144.957 E24.60393
G1 X168.615 Y145.729 E24.63456
G1 X168.047 Y146.454 E24.66519
G1 X167.419 Y147.127 E24.69581
G1 X166.735 Y147.743 E24.72642
G1 X166 Y148.297 E24.75704
G1 X165.22 Y148.786 E24.78766
G1 X164.4 Y149.205 E24.81828
G1 X163.547 Y149.551 E24.8489
G1 X162.667 Y149.822 E24.87952
G1 X161.767 Y150.015 E24.91014
G1 X160.853 Y150.13 E24.94078
G1 X160.288 Y150.161 E24.9596
G1 X159.967 Y150.17 E24.97028
G1 X159.67 Y150.174 E24.98016
G1 X60.57 Y150.173 E28.27624
G1 X59.872 Y150.164 E28.29946
G1 X58.953 Y150.112 E28.33007
G1 X58.042 Y149.981 E28.36068
G1 X57.146 Y149.771 E28.39129
G1 X56.271 Y149.484 E28.42192
G1 X55.424 Y149.122 E28.45255
G1 X54.612 Y148.688 E28.48318
G1 X53.841 Y148.186 E28.51378
G1 X53.116 Y147.618 E28.54441
G1 X52.443 Y146.989 E28.57505
G1 X51.828 Y146.305 E28.60564
G1 X51.274 Y145.57 E28.63626
G1 X50.786 Y144.789 E28.66689
G1 X50.367 Y143.969 E28.69751
G1 X50.021 Y143.116 E28.72813
G1 X49.751 Y142.236 E28.75874
G1 X49.558 Y141.335 E28.78939
G1 X49.444 Y140.422 E28.81999
G1 X49.413 Y139.851 E28.83901
G1 X49.404 Y139.518 E28.85009
G1 X49.4 Y139.232 E28.85961
G1 X49.401 Y27.936 E32.56133
G1 X49.41 Y27.258 E32.58388
G1 X49.462 Y26.339 E32.61449
G1 X49.594 Y25.428 E32.64511
G1 X49.804 Y24.532 E32.67572
G1 X50.091 Y23.657 E32.70635
G1 X50.454 Y22.811 E32.73697
G0 F6000 X50.852 Y22.906
G1 F900 X51.285 Y22.114 E32.76699
G1 X51.787 Y21.363 E32.79703
G1 X52.353 Y20.659 E32.82708
G1 X52.979 Y20.009 E32.85709
G1 X53.66 Y19.416 E32.88713
G1 X54.391 Y18.885 E32.91718
G1 X55.166 Y18.422 E32.9472
G1 X55.979 Y18.029 E32.97724
G1 X56.824 Y17.709 E33.00729
G1 X57.694 Y17.465 E33.03734
G1 X58.581 Y17.299 E33.06736
G1 X59.708 Y17.203 E33.10498
G1 X60.013 Y17.194 E33.11512
G1 X60.314 Y17.19 E33.12514
G1 X159.293 Y17.189 E36.41719
G1 X160.137 Y17.2 E36.44527
G1 X161.039 Y17.253 E36.47532
G1 X161.932 Y17.385 E36.50534
G1 X162.81 Y17.596 E36.53538
G1 X163.666 Y17.884 E36.56542
G1 X164.493 Y18.246 E36.59544
G1 X165.285 Y18.681 E36.62549
G1 X166.036 Y19.183 E36.65554
G1 X166.739 Y19.75 E36.68558
G1 X167.389 Y20.377 E36.71562
G1 X167.981 Y21.059 E36.74565
G1 X168.511 Y21.79 E36.77569
G1 X168.973 Y22.566 E36.80572
G1 X169.366 Y23.379 E36.83576
G1 X169.684 Y24.224 E36.86579
G1 X169.927 Y25.094 E36.89583
G1 X170.092 Y25.982 E36.92587
G1 X170.187 Y27.111 E36.96355
G1 X170.196 Y27.43 E36.97417
G1 X170.2 Y27.718 E36.98375
G1 X170.199 Y138.964 E40.6838
G1 X170.19 Y139.691 E40.70799
G1 X170.139 Y140.593 E40.73804
G1 X170.008 Y141.487 E40.76809
G1 X169.799 Y142.365 E40.79811
G1 X169.513 Y143.222 E40.82816
G1 X169.152 Y144.05 E40.8582
G1 X168.72 Y144.842 E40.8882
G1 X168.219 Y145.594 E40.91826
G1 X167.653 Y146.298 E40.9483
G1 X167.028 Y146.949 E40.97832
G1 X166.347 Y147.543 E41.00837
G1 X165.616 Y148.074 E41.03842
G1 X164.842 Y148.538 E41.06844
G1 X164.029 Y148.932 E41.09849
G1 X163.185 Y149.252 E41.12851
G1 X162.315 Y149.497 E41.15857
G1 X161.428 Y149.663 E41.18859
G1 X160.277 Y149.761 E41.22701
G1 X159.956 Y149.77 E41.23769
G1 X159.67 Y149.774 E41.2472
G1 X60.575 Y149.773 E44.54311
G1 X59.877 Y149.764 E44.56633
G1 X58.976 Y149.713 E44.59635
G1 X58.082 Y149.581 E44.6264
G1 X57.204 Y149.372 E44.65642
G1 X56.347 Y149.085 E44.68648
G1 X55.52 Y148.724 E44.71649
G1 X54.727 Y148.291 E44.74654
G1 X53.976 Y147.79 E44.77657
G1 X53.272 Y147.224 E44.80662
G1 X52.621 Y146.598 E44.83665
G1 X52.028 Y145.917 E44.86669
G1 X51.498 Y145.186 E44.89672
G1 X51.034 Y144.411 E44.92676
G1 X50.64 Y143.598 E44.95681
G1 X50.32 Y142.754 E44.98683
G1 X50.076 Y141.884 E45.01689
G1 X49.91 Y140.996 E45.04693
G1 X49.813 Y139.841 E45.08548
G1 X49.804 Y139.508 E45.09656
G1 X49.8 Y139.232 E45.10574
G1 X49.801 Y27.942 E48.80726
G1 X49.81 Y27.264 E48.82982
G1 X49.862 Y26.362 E48.85987
G1 X49.993 Y25.469 E48.88989
G1 X50.203 Y24.59 E48.91994
G1 X50.49 Y23.734 E48.94997
G1 X50.852 Y22.906 E48.98003
G1 F2700 E43.98003
;MESH:LEDRings-Stand.stl
G0 F6000 X105.12 Y114.59
G0 X103.175 Y113.45
G0 X103.074 Y118.705
G0 X103.233 Y119.983
G0 X103.628 Y121.351
G0 X104.223 Y122.578
G0 X105.004 Y123.654
G0 X105.949 Y124.544
G0 X109.478 Y126.753
;TYPE:WALL-INNER
G1 F2700 E48.98003
G1 F900 X110.058 Y126.73 E48.99934
G1 X110.637 Y126.654 E49.01876
G1 X111.209 Y126.524 E49.03827
G1 X111.767 Y126.349 E49.05772
G1 X112.309 Y126.119 E49.0773
G1 X112.833 Y125.848 E49.09692
G1 X113.322 Y125.535 E49.11623
G1 X113.571 Y125.357 E49.12641
G1 X113.81 Y125.17 E49.13651
G1 X114.038 Y124.975 E49.14649
G1 X114.26 Y124.77 E49.15654
G1 X114.472 Y124.556 E49.16655
G1 X114.674 Y124.337 E49.17646
G1 X114.869 Y124.111 E49.18639
G1 X115.048 Y123.888 E49.1959
G1 X115.245 Y123.622 E49.20691
G1 X115.415 Y123.37 E49.21702
G1 X115.577 Y123.115 E49.22707
G1 X115.733 Y122.846 E49.23741
G1 X115.878 Y122.573 E49.24769
G1 X116.014 Y122.297 E49.25793
G1 X116.142 Y122.011 E49.26835
G1 X116.258 Y121.727 E49.27855
G1 X116.366 Y121.435 E49.28891
G1 X116.465 Y121.139 E49.29929
G1 X116.555 Y120.835 E49.30983
G1 X116.631 Y120.534 E49.32016
G1 X116.701 Y120.229 E49.33057
G1 X116.758 Y119.917 E49.34112
G1 X116.807 Y119.607 E49.35156
G1 X116.846 Y119.294 E49.36205
G1 X116.874 Y118.985 E49.37237
G1 X116.894 Y118.668 E49.38293
G1 X116.901 Y118.349 E49.39354
G1 X116.899 Y118.036 E49.40395
G1 X116.886 Y117.722 E49.41441
G1 X116.866 Y117.406 E49.42494
G1 X116.832 Y117.089 E49.43554
G1 X116.788 Y116.781 E49.44589
G1 X116.737 Y116.472 E49.45631
G1 X116.675 Y116.163 E49.46679
G1 X116.602 Y115.851 E49.47745
G1 X116.522 Y115.564 E49.48735
G1 X116.426 Y115.253 E49.49818
G1 X116.325 Y114.963 E49.50839
G1 X116.218 Y114.682 E49.51839
G1 X116.092 Y114.385 E49.52913
G1 X115.962 Y114.103 E49.53945
G1 X115.82 Y113.825 E49.54984
G1 X115.669 Y113.558 E49.56004
G1 X115.514 Y113.297 E49.57013
G1 X115.347 Y113.039 E49.58036
G1 X115.172 Y112.791 E49.59045
G1 X114.991 Y112.55 E49.60048
G1 X114.79 Y112.303 E49.61107
G1 X114.588 Y112.076 E49.62117
G1 X114.39 Y111.87 E49.63068
G1 X114.17 Y111.659 E49.64082
G1 X113.955 Y111.464 E49.65047
G1 X113.704 Y111.257 E49.66129
G1 X113.245 Y110.924 E49.68015
G1 X112.994 Y110.762 E49.69009
G1 X112.731 Y110.609 E49.70021
G1 X112.479 Y110.475 E49.7097
G1 X112.202 Y110.343 E49.71991
G1 X111.94 Y110.231 E49.72938
G1 X111.64 Y110.12 E49.74002
G1 X111.092 Y109.959 E49.75902
G1 X110.525 Y109.842 E49.77828
G1 X110.509 Y109.841 E49.77881
G1 X109.952 Y109.773 E49.79747
G1 X109.646 Y109.761 E49.80766
G1 X109.077 Y109.77 E49.82659
G1 X108.485 Y109.84 E49.84641
G1 X107.922 Y109.954 E49.86552
G1 X107.639 Y110.032 E49.87528
G1 X107.352 Y110.125 E49.88532
G1 X107.088 Y110.223 E49.89468
G1 X106.794 Y110.345 E49.90527
G1 X106.277 Y110.605 E49.92452
G1 X105.771 Y110.913 E49.94422
G1 X105.303 Y111.253 E49.96346
G1 X105.059 Y111.456 E49.97402
G1 X104.835 Y111.658 E49.98405
G1 X104.624 Y111.863 E49.99383
G1 X104.423 Y112.071 E50.00345
G1 X104.218 Y112.302 E50.01373
G1 X104.023 Y112.539 E50.02393
G1 X103.838 Y112.781 E50.03406
G1 X103.659 Y113.036 E50.04443
G1 X103.491 Y113.295 E50.05469
G1 X103.34 Y113.546 E50.06444
G1 X103.188 Y113.817 E50.07477
G1 X103.044 Y114.098 E50.08527
G1 X102.913 Y114.382 E50.09568
G1 X102.792 Y114.669 E50.10604
G1 X102.681 Y114.957 E50.1163
G1 X102.58 Y115.244 E50.12642
G1 X102.487 Y115.547 E50.13696
G1 X102.403 Y115.85 E50.14742
G1 X102.329 Y116.162 E50.15809
G1 X102.268 Y116.466 E50.1684
G1 X102.215 Y116.763 E50.17843
G1 X102.171 Y117.09 E50.18941
G1 X102.138 Y117.405 E50.19994
G1 X102.117 Y117.708 E50.21004
G1 X102.105 Y117.993 E50.21953
G1 X102.101 Y118.274 E50.22888
G1 X102.113 Y118.756 E50.24491
G1 X102.15 Y119.225 E50.26056
G1 X102.208 Y119.707 E50.27671
G1 X102.292 Y120.174 E50.29249
G1 X102.386 Y120.589 E50.30664
G1 X102.488 Y120.971 E50.31979
G1 X102.603 Y121.335 E50.33249
G1 X102.73 Y121.694 E50.34516
G1 X102.876 Y122.049 E50.35792
G1 X103.034 Y122.396 E50.3706
G1 X103.212 Y122.743 E50.38357
G1 X103.4 Y123.071 E50.39615
G1 X103.598 Y123.387 E50.40855
G1 X103.811 Y123.698 E50.42109
G1 X104.047 Y124.003 E50.43392
G1 X104.281 Y124.285 E50.4461
G1 X104.533 Y124.561 E50.45853
G1 X104.795 Y124.82 E50.47079
G1 X105.075 Y125.072 E50.48332
G1 X105.36 Y125.303 E50.49552
G1 X105.636 Y125.507 E50.50693
G1 X106.124 Y125.821 E50.52623
G1 X106.645 Y126.1 E50.54589
G1 X107.187 Y126.331 E50.56549
G1 X107.744 Y126.515 E50.585
G1 X108.315 Y126.646 E50.60448
G1 X108.895 Y126.727 E50.62396
G1 X109.478 Y126.753 E50.64337
G0 F6000 X109.479 Y126.353
G1 F900 X110.024 Y126.331 E50.66151
G1 X110.567 Y126.26 E50.67973
G1 X111.105 Y126.138 E50.69807
G1 X111.629 Y125.973 E50.71635
G1 X112.139 Y125.757 E50.73477
G1 X112.633 Y125.501 E50.75327
G1 X113.098 Y125.204 E50.77162
G1 X113.331 Y125.037 E50.78116
G1 X113.557 Y124.86 E50.79071
G1 X113.772 Y124.676 E50.80012
G1 X113.982 Y124.482 E50.80963
G1 X114.183 Y124.28 E50.81911
G1 X114.375 Y124.071 E50.82855
G1 X114.562 Y123.855 E50.83805
G1 X114.731 Y123.644 E50.84704
G1 X114.918 Y123.391 E50.8575
G1 X115.08 Y123.151 E50.86713
G1 X115.235 Y122.907 E50.87675
G1 X115.383 Y122.652 E50.88655
G1 X115.522 Y122.391 E50.89639
G1 X115.652 Y122.127 E50.90618
G1 X115.774 Y121.854 E50.91612
G1 X115.885 Y121.582 E50.92589
G1 X115.989 Y121.302 E50.93583
G1 X116.083 Y121.019 E50.94575
G1 X116.169 Y120.729 E50.95581
G1 X116.242 Y120.44 E50.96572
G1 X116.309 Y120.148 E50.97569
G1 X116.364 Y119.85 E50.98576
G1 X116.411 Y119.551 E50.99583
G1 X116.448 Y119.251 E51.00589
G1 X116.475 Y118.954 E51.0158
G1 X116.494 Y118.651 E51.0259
G1 X116.501 Y118.346 E51.03605
G1 X116.499 Y118.045 E51.04606
G1 X116.487 Y117.743 E51.05611
G1 X116.467 Y117.44 E51.06621
G1 X116.435 Y117.138 E51.07631
G1 X116.393 Y116.842 E51.08626
G1 X116.344 Y116.544 E51.0963
G1 X116.284 Y116.248 E51.10635
G1 X116.214 Y115.95 E51.11653
G1 X116.138 Y115.676 E51.12599
G1 X116.046 Y115.378 E51.13636
G1 X115.949 Y115.1 E51.14615
G1 X115.847 Y114.831 E51.15572
G1 X115.726 Y114.547 E51.16599
G1 X115.602 Y114.278 E51.17584
G1 X115.467 Y114.014 E51.1857
G1 X115.323 Y113.758 E51.19547
G1 X115.174 Y113.508 E51.20515
G1 X115.015 Y113.263 E51.21486
G1 X114.849 Y113.026 E51.22449
G1 X114.676 Y112.797 E51.23403
G1 X114.485 Y112.562 E51.24411
G1 X114.294 Y112.348 E51.25365
G1 X114.107 Y112.153 E51.26263
G1 X113.897 Y111.951 E51.27232
G1 X113.694 Y111.767 E51.28144
G1 X113.459 Y111.574 E51.29155
G1 X113.019 Y111.254 E51.30965
G1 X112.785 Y111.103 E51.31891
G1 X112.536 Y110.959 E51.32848
G1 X112.299 Y110.832 E51.33742
G1 X112.038 Y110.708 E51.34703
G1 X111.792 Y110.603 E51.35593
G1 X111.514 Y110.5 E51.36579
G1 X110.995 Y110.347 E51.38378
G1 X110.461 Y110.237 E51.40192
G1 X110.445 Y110.236 E51.40245
G1 X109.92 Y110.172 E51.42004
G1 X109.641 Y110.161 E51.42933
G1 X109.104 Y110.17 E51.44719
G1 X108.548 Y110.235 E51.46581
G1 X108.015 Y110.343 E51.4839
G1 X107.754 Y110.415 E51.4929
G1 X107.483 Y110.503 E51.50238
G1 X107.234 Y110.595 E51.51121
G1 X106.961 Y110.709 E51.52105
G1 X106.471 Y110.955 E51.53928
G1 X105.993 Y111.246 E51.5579
G1 X105.549 Y111.569 E51.57616
G1 X105.321 Y111.758 E51.58601
G1 X105.109 Y111.95 E51.59552
G1 X104.907 Y112.146 E51.60488
G1 X104.716 Y112.343 E51.61401
G1 X104.522 Y112.562 E51.62374
G1 X104.337 Y112.787 E51.63343
G1 X104.161 Y113.018 E51.64309
G1 X103.99 Y113.26 E51.65294
G1 X103.83 Y113.507 E51.66273
