;FLAVOR:Marlin
;TIME:6659
;Filament used: 9.05179m
;Layer height: 0.28
;MINX:35.289
;MINY:35.297
;MINZ:0.28
;MAXX:184.711
;MAXY:184.702
;MAXZ:80.08
;TARGET_MACHINE.NAME:Creality Ender-5
;Generated with Cura_SteamEngine 5.5.0
M82 ;absolute extrusion mode
M201 X500.00 Y500.00 Z100.00 E5000.00 ;Setup machine max acceleration
M203 X500.00 Y500.00 Z10.00 E50.00 ;Setup machine max feedrate
M204 P500.00 R1000.00 T500.00 ;Setup Print/Retract/Travel acceleration
M205 X8.00 Y8.00 Z0.40 E5.00 ;Setup Jerk
M220 S100 ;Reset Feedrate
M221 S100 ;Reset Flowrate

M280 P0 S160 ; BLTouch alarm release
G4 P100; delay for BLTouch

M104 S200 ;heat nozzle to default temp set in material settings
M140 S50 ;Start heating bed

G28 ; home all axes
G29; Detailed Z-Probe

M190 S50 ;Wait for bed to reach temp before proceeding
M109 S200 ;Wait for extruder to reach temp before proceeding

G92 E0 ;Reset Extruder
G1 Z2.0 F3000 ;Move Z Axis up
G1 X10.1 Y20 Z0.28 F5000.0 ;Move to start position
G1 X10.1 Y200.0 Z0.28 F1500.0 E15 ;Draw the first line
G1 X10.4 Y200.0 Z0.28 F5000.0 ;Move to side a little
G1 X10.4 Y20 Z0.28 F1500.0 E30 ;Draw the second line
G92 E0 ;Reset Extruder
;Move Z Axis up
G1 Z2.0 F3000
G92 E0
G92 E0
G1 F2700 E-5
;LAYER_COUNT:286
;LAYER:0
M107
G0 F6000 X57.22 Y57.126 Z0.28
;TYPE:SKIRT
G1 F2700 E0
G1 F1200 X58.128 Y56.23 E0.0594
G1 X59.933 Y54.55 E0.17422
G1 X60.634 Y53.919 E0.21814
G1 X62.801 Y52.09 E0.35018
G1 X63.735 Y51.337 E0.40604
G1 X65.732 Y49.819 E0.52285
G1 X66.716 Y49.102 E0.57954
G1 X68.654 Y47.776 E0.68888
G1 X69.797 Y47.028 E0.75249
G1 X71.935 Y45.717 E0.86927
G1 X72.993 Y45.096 E0.92639
G1 X75.027 Y43.983 E1.03436
G1 X76.288 Y43.326 E1.10057
G1 X78.41 Y42.298 E1.21036
G1 X79.634 Y41.738 E1.27304
G1 X81.914 Y40.773 E1.38832
G1 X83.103 Y40.297 E1.44796
G1 X85.277 Y39.503 E1.55573
G1 X86.626 Y39.039 E1.62216
G1 X89.008 Y38.302 E1.73826
G1 X90.124 Y37.981 E1.79233
G1 X92.566 Y37.355 E1.90972
G1 X93.787 Y37.068 E1.96812
G1 X96.091 Y36.599 E2.07761
G1 X97.442 Y36.351 E2.14157
G1 X99.749 Y35.999 E2.25023
G1 X100.758 Y35.86 E2.29766
G1 X103.624 Y35.563 E2.43183
G1 X104.843 Y35.467 E2.48877
G1 X107.35 Y35.337 E2.60566
G1 X108.532 Y35.302 E2.66072
G1 X110.873 Y35.297 E2.76973
G1 X112.286 Y35.321 E2.83553
G1 X114.763 Y35.443 E2.95101
G1 X116.015 Y35.531 E3.00945
G1 X118.462 Y35.773 E3.12395
G1 X119.688 Y35.918 E3.18144
G1 X122.002 Y36.263 E3.29038
G1 X123.425 Y36.503 E3.35758
G1 X125.713 Y36.962 E3.46624
G1 X126.999 Y37.247 E3.52757
G1 X129.461 Y37.869 E3.64582
G1 X130.644 Y38.196 E3.70297
G1 X132.855 Y38.874 E3.81065
G1 X134.197 Y39.315 E3.87643
G1 X136.546 Y40.166 E3.99276
G1 X137.655 Y40.595 E4.04813
G1 X139.972 Y41.568 E4.16515
G1 X141.111 Y42.074 E4.22318
G1 X143.201 Y43.075 E4.33109
G1 X144.474 Y43.715 E4.39743
G1 X146.508 Y44.819 E4.5052
G1 X147.72 Y45.508 E4.57012
G1 X149.816 Y46.787 E4.68445
G1 X150.9 Y47.477 E4.74428
G1 X152.951 Y48.871 E4.85976
G1 X153.928 Y49.567 E4.91561
G1 X155.957 Y51.098 E5.03397
G1 X156.905 Y51.846 E5.0902
G1 X158.785 Y53.419 E5.20434
G1 X159.774 Y54.282 E5.26546
G1 X161.523 Y55.903 E5.3765
G1 X162.49 Y56.833 E5.43897
G1 X164.185 Y58.566 E5.55185
G1 X165.028 Y59.464 E5.6092
G1 X166.683 Y61.333 E5.72545
G1 X167.511 Y62.31 E5.78508
G1 X169.053 Y64.236 E5.89997
G1 X169.799 Y65.213 E5.95721
G1 X171.261 Y67.24 E6.07358
G1 X171.983 Y68.286 E6.13276
G1 X173.325 Y70.359 E6.24775
G1 X173.967 Y71.396 E6.30454
G1 X175.164 Y73.461 E6.41568
G1 X175.801 Y74.613 E6.47698
G1 X176.949 Y76.847 E6.59394
G1 X177.486 Y77.946 E6.65089
G1 X178.435 Y80.037 E6.75782
G1 X179.008 Y81.367 E6.82525
G1 X179.918 Y83.679 E6.94095
G1 X180.348 Y84.839 E6.99855
G1 X181.138 Y87.176 E7.11342
G1 X181.515 Y88.378 E7.17208
G1 X182.201 Y90.804 E7.28947
G1 X182.497 Y91.938 E7.34405
G1 X183.013 Y94.185 E7.4514
G1 X183.321 Y95.646 E7.52093
G1 X183.741 Y98.018 E7.63309
G1 X183.939 Y99.279 E7.69253
G1 X184.249 Y101.724 E7.80729
G1 X184.384 Y103.005 E7.86727
G1 X184.572 Y105.495 E7.98355
G1 X184.64 Y106.708 E8.04012
G1 X184.704 Y109.196 E8.15601
G1 X184.711 Y110.423 E8.21314
G1 X184.652 Y112.922 E8.32954
G1 X184.598 Y114.13 E8.38584
G1 X184.411 Y116.667 E8.5043
G1 X184.302 Y117.83 E8.55869
G1 X183.987 Y120.368 E8.67778
G1 X183.822 Y121.501 E8.73109
G1 X183.385 Y124.007 E8.84954
G1 X183.146 Y125.221 E8.90715
G1 X182.601 Y127.618 E9.02162
G1 X182.299 Y128.833 E9.07991
G1 X181.618 Y131.27 E9.19774
G1 X181.267 Y132.424 E9.2539
G1 X180.481 Y134.777 E9.36942
G1 X180.064 Y135.944 E9.42713
G1 X179.149 Y138.28 E9.54395
G1 X178.691 Y139.386 E9.59969
G1 X177.743 Y141.499 E9.70753
G1 X177.118 Y142.819 E9.77553
G1 X176.012 Y144.981 E9.88861
G1 X175.396 Y146.131 E9.94936
G1 X174.158 Y148.277 E10.06472
G1 X173.542 Y149.297 E10.12021
G1 X172.197 Y151.386 E10.2359
G1 X171.482 Y152.45 E10.29559
G1 X170.048 Y154.449 E10.41015
G1 X169.302 Y155.445 E10.46809
G1 X167.866 Y157.252 E10.57557
G1 X166.964 Y158.341 E10.64141
G1 X165.32 Y160.21 E10.75731
G1 X164.489 Y161.117 E10.81459
G1 X162.78 Y162.874 E10.92873
G1 X161.872 Y163.77 E10.98813
G1 X160.067 Y165.45 E11.10295
G1 X159.366 Y166.081 E11.14686
G1 X157.199 Y167.91 E11.27891
G1 X156.265 Y168.663 E11.33477
G1 X154.268 Y170.181 E11.45157
G1 X153.284 Y170.898 E11.50827
G1 X151.346 Y172.224 E11.61761
G1 X150.203 Y172.972 E11.68122
G1 X148.065 Y174.283 E11.798
G1 X147.007 Y174.904 E11.85512
G1 X144.973 Y176.017 E11.96308
G1 X143.712 Y176.674 E12.02929
G1 X141.59 Y177.702 E12.13909
G1 X140.366 Y178.262 E12.20176
G1 X138.086 Y179.227 E12.31705
G1 X136.897 Y179.703 E12.37668
G1 X134.723 Y180.497 E12.48446
G1 X133.374 Y180.961 E12.55088
G1 X130.992 Y181.698 E12.66699
G1 X129.876 Y182.019 E12.72106
G1 X127.434 Y182.645 E12.83844
G1 X126.213 Y182.932 E12.89685
G1 X123.909 Y183.401 E13.00633
G1 X122.558 Y183.649 E13.07029
G1 X120.251 Y184.001 E13.17896
G1 X119.242 Y184.14 E13.22639
G1 X116.376 Y184.437 E13.36055
G1 X115.157 Y184.533 E13.41749
G1 X112.65 Y184.663 E13.53438
G1 X111.468 Y184.698 E13.58945
G1 X108.964 Y184.702 E13.70604
G1 X107.714 Y184.679 E13.76426
G1 X105.237 Y184.557 E13.87974
G1 X103.985 Y184.469 E13.93818
G1 X101.536 Y184.227 E14.05277
G1 X100.312 Y184.082 E14.11017
G1 X97.998 Y183.737 E14.21911
G1 X96.575 Y183.497 E14.2863
G1 X94.288 Y183.039 E14.39491
G1 X93.004 Y182.754 E14.45615
G1 X90.53 Y182.13 E14.57496
G1 X89.366 Y181.808 E14.6312
G1 X87.145 Y181.126 E14.73938
G1 X85.803 Y180.685 E14.80516
G1 X83.454 Y179.834 E14.92149
G1 X82.343 Y179.405 E14.97695
G1 X80.032 Y178.434 E15.09367
G1 X78.889 Y177.926 E15.15192
G1 X76.799 Y176.925 E15.25982
G1 X75.526 Y176.285 E15.32617
G1 X73.492 Y175.181 E15.43393
G1 X72.281 Y174.491 E15.49883
G1 X70.184 Y173.213 E15.61318
G1 X69.102 Y172.524 E15.67291
G1 X67.19 Y171.226 E15.78052
G1 X66.066 Y170.43 E15.84465
G1 X64.043 Y168.902 E15.9627
G1 X63.094 Y168.154 E16.01897
G1 X61.214 Y166.581 E16.13311
G1 X60.227 Y165.721 E16.19407
G1 X58.48 Y164.103 E16.30494
G1 X57.506 Y163.164 E16.36794
G1 X55.929 Y161.55 E16.47302
G1 X54.953 Y160.516 E16.53922
G1 X53.315 Y158.665 E16.65432
G1 X52.487 Y157.688 E16.71395
G1 X50.955 Y155.771 E16.82822
G1 X50.199 Y154.785 E16.88607
G1 X48.836 Y152.899 E16.99442
G1 X48.015 Y151.712 E17.06163
G1 X46.675 Y149.64 E17.17653
G1 X46.033 Y148.602 E17.23336
G1 X44.751 Y146.388 E17.35249
G1 X44.196 Y145.382 E17.40599
G1 X43.054 Y143.158 E17.5224
G1 X42.513 Y142.05 E17.57982
G1 X41.497 Y139.811 E17.6943
G1 X40.994 Y138.636 E17.75382
G1 X40.082 Y136.32 E17.86972
G1 X39.653 Y135.161 E17.92727
G1 X38.862 Y132.824 E18.04215
G1 X38.484 Y131.621 E18.10087
G1 X37.843 Y129.358 E18.21039
G1 X37.503 Y128.062 E18.27278
G1 X36.987 Y125.815 E18.38013
G1 X36.679 Y124.354 E18.44966
G1 X36.259 Y121.982 E18.56183
G1 X36.061 Y120.721 E18.62126
G1 X35.751 Y118.276 E18.73602
G1 X35.616 Y116.995 E18.796
G1 X35.428 Y114.505 E18.91228
G1 X35.36 Y113.292 E18.96885
G1 X35.296 Y110.804 E19.08474
G1 X35.289 Y109.578 E19.14183
G1 X35.348 Y107.066 E19.25883
G1 X35.402 Y105.87 E19.31458
G1 X35.589 Y103.333 E19.43303
G1 X35.698 Y102.17 E19.48742
G1 X36.013 Y99.632 E19.60651
G1 X36.178 Y98.499 E19.65982
G1 X36.615 Y95.993 E19.77827
G1 X36.854 Y94.779 E19.83589
G1 X37.399 Y92.382 E19.95035
G1 X37.701 Y91.167 E20.00865
G1 X38.382 Y88.73 E20.12647
G1 X38.733 Y87.576 E20.18264
G1 X39.519 Y85.223 E20.29815
G1 X39.936 Y84.056 E20.35586
G1 X40.851 Y81.72 E20.47268
G1 X41.309 Y80.614 E20.52842
G1 X42.257 Y78.501 E20.63626
G1 X42.882 Y77.181 E20.70427
G1 X43.988 Y75.019 E20.81735
G1 X44.604 Y73.869 E20.87809
G1 X45.842 Y71.723 E20.99346
G1 X46.458 Y70.703 E21.04894
G1 X47.803 Y68.614 E21.16463
G1 X48.518 Y67.55 E21.22432
G1 X49.952 Y65.551 E21.33888
G1 X50.698 Y64.555 E21.39682
G1 X52.134 Y62.748 E21.5043
G1 X53.035 Y61.66 E21.57008
G1 X54.686 Y59.783 E21.68648
G1 X55.511 Y58.883 E21.74333
G1 X57.22 Y57.126 E21.85746
G0 F6000 X57.501 Y57.411
G1 F1200 X58.401 Y56.523 E21.91633
G1 X60.201 Y54.847 E22.03086
G1 X60.892 Y54.225 E22.07415
G1 X63.052 Y52.401 E22.20579
G1 X63.977 Y51.655 E22.26112
G1 X65.967 Y50.142 E22.37753
G1 X66.942 Y49.432 E22.43369
G1 X68.873 Y48.111 E22.54263
G1 X70.006 Y47.369 E22.60569
G1 X72.137 Y46.062 E22.7221
G1 X73.185 Y45.447 E22.77868
G1 X75.212 Y44.338 E22.88627
G1 X76.462 Y43.686 E22.95192
G1 X78.577 Y42.662 E23.06134
G1 X79.79 Y42.106 E23.12347
G1 X82.063 Y41.144 E23.2384
G1 X83.24 Y40.673 E23.29743
G1 X85.407 Y39.881 E23.40486
G1 X86.744 Y39.421 E23.4707
G1 X89.119 Y38.686 E23.58647
G1 X90.223 Y38.368 E23.63996
G1 X92.657 Y37.744 E23.75696
G1 X93.867 Y37.46 E23.81484
G1 X96.163 Y36.992 E23.92395
G1 X97.502 Y36.746 E23.98734
G1 X99.804 Y36.395 E24.09577
G1 X100.799 Y36.258 E24.14254
G1 X103.656 Y35.962 E24.27629
G1 X104.864 Y35.866 E24.33271
G1 X107.362 Y35.737 E24.44918
G1 X108.533 Y35.702 E24.50374
G1 X110.866 Y35.697 E24.61237
G1 X112.266 Y35.721 E24.67757
G1 X114.735 Y35.842 E24.79267
G1 X115.976 Y35.929 E24.8506
G1 X118.415 Y36.17 E24.96473
G1 X119.629 Y36.314 E25.02165
G1 X121.935 Y36.657 E25.13021
G1 X123.346 Y36.895 E25.19684
G1 X125.626 Y37.352 E25.30512
G1 X126.901 Y37.635 E25.36593
G1 X129.355 Y38.255 E25.48379
G1 X130.527 Y38.578 E25.5404
G1 X132.73 Y39.254 E25.6477
G1 X134.061 Y39.691 E25.71293
G1 X136.402 Y40.539 E25.82887
G1 X137.5 Y40.964 E25.88369
G1 X139.809 Y41.933 E26.00029
G1 X140.938 Y42.435 E26.05783
G1 X143.028 Y43.436 E26.16573
G1 X144.283 Y44.066 E26.23112
G1 X146.31 Y45.167 E26.33853
G1 X147.512 Y45.85 E26.40291
G1 X149.601 Y47.124 E26.51684
G1 X150.675 Y47.808 E26.57613
G1 X152.719 Y49.197 E26.69121
G1 X153.687 Y49.886 E26.74653
G1 X155.709 Y51.412 E26.86449
G1 X156.648 Y52.153 E26.92019
G1 X158.522 Y53.72 E27.03394
G1 X159.502 Y54.575 E27.09449
G1 X161.246 Y56.191 E27.20521
G1 X162.204 Y57.113 E27.26712
G1 X163.893 Y58.84 E27.3796
G1 X164.736 Y59.738 E27.43695
G1 X166.378 Y61.592 E27.55227
G1 X167.199 Y62.56 E27.61137
G1 X168.735 Y64.479 E27.72583
G1 X169.475 Y65.447 E27.78257
G1 X170.932 Y67.467 E27.89854
G1 X171.647 Y68.503 E27.95715
G1 X172.985 Y70.57 E28.07181
G1 X173.621 Y71.597 E28.12806
G1 X174.814 Y73.655 E28.23882
G1 X175.445 Y74.796 E28.29954
G1 X176.59 Y77.023 E28.41614
G1 X177.122 Y78.111 E28.47253
G1 X178.068 Y80.195 E28.5791
G1 X178.636 Y81.514 E28.64597
G1 X179.543 Y83.818 E28.76127
G1 X179.969 Y84.967 E28.81833
G1 X180.756 Y87.296 E28.9328
G1 X181.13 Y88.487 E28.99093
G1 X181.814 Y90.905 E29.10794
G1 X182.107 Y92.028 E29.16198
G1 X182.622 Y94.267 E29.26896
G1 X182.927 Y95.716 E29.33791
G1 X183.346 Y98.08 E29.44971
G1 X183.542 Y99.329 E29.50858
G1 X183.851 Y101.766 E29.62296
G1 X183.985 Y103.035 E29.68238
G1 X184.173 Y105.517 E29.79828
G1 X184.24 Y106.718 E29.85429
G1 X184.304 Y109.198 E29.96981
G1 X184.311 Y110.414 E30.02644
G1 X184.252 Y112.904 E30.14241
G1 X184.199 Y114.101 E30.1982
G1 X184.013 Y116.63 E30.31628
G1 X183.905 Y117.781 E30.37011
G1 X183.591 Y120.31 E30.48878
G1 X183.428 Y121.432 E30.54157
G1 X182.992 Y123.93 E30.65965
G1 X182.756 Y125.132 E30.71669
G1 X182.213 Y127.522 E30.83081
G1 X181.914 Y128.725 E30.88853
G1 X181.235 Y131.154 E31.00597
G1 X180.888 Y132.297 E31.06159
G1 X180.104 Y134.642 E31.17673
G1 X179.691 Y135.798 E31.23389
G1 X178.78 Y138.127 E31.35034
G1 X178.326 Y139.222 E31.40553
G1 X177.381 Y141.328 E31.51302
G1 X176.762 Y142.637 E31.58044
G1 X175.66 Y144.792 E31.69315
G1 X175.049 Y145.931 E31.75333
G1 X173.816 Y148.07 E31.8683
G1 X173.206 Y149.08 E31.92324
G1 X171.865 Y151.163 E32.03859
G1 X171.157 Y152.217 E32.09772
G1 X169.728 Y154.209 E32.21187
G1 X168.989 Y155.196 E32.26929
G1 X167.558 Y156.997 E32.3764
G1 X166.664 Y158.077 E32.44168
G1 X165.025 Y159.94 E32.55722
G1 X164.202 Y160.838 E32.61394
G1 X162.499 Y162.589 E32.72768
G1 X161.599 Y163.477 E32.78655
G1 X159.799 Y165.153 E32.90107
G1 X159.108 Y165.775 E32.94437
G1 X156.948 Y167.599 E33.07601
G1 X156.023 Y168.345 E33.13134
G1 X154.033 Y169.858 E33.24775
G1 X153.058 Y170.568 E33.30391
G1 X151.127 Y171.889 E33.41285
G1 X149.994 Y172.631 E33.47591
G1 X147.863 Y173.938 E33.59232
G1 X146.815 Y174.553 E33.6489
G1 X144.788 Y175.662 E33.75649
G1 X143.538 Y176.314 E33.82214
G1 X141.423 Y177.338 E33.93155
G1 X140.21 Y177.894 E33.99369
G1 X137.937 Y178.856 E34.10862
G1 X136.76 Y179.327 E34.16765
G1 X134.593 Y180.119 E34.27508
G1 X133.256 Y180.579 E34.34092
G1 X130.881 Y181.314 E34.45668
G1 X129.777 Y181.632 E34.51018
G1 X127.343 Y182.256 E34.62718
G1 X126.133 Y182.54 E34.68506
G1 X123.837 Y183.008 E34.79417
G1 X122.498 Y183.254 E34.85756
G1 X120.196 Y183.605 E34.96599
G1 X119.201 Y183.742 E35.01276
G1 X116.344 Y184.038 E35.1465
G1 X115.136 Y184.134 E35.20293
G1 X112.638 Y184.263 E35.3194
G1 X111.467 Y184.298 E35.37395
G1 X108.971 Y184.302 E35.49018
G1 X107.734 Y184.279 E35.54779
G1 X105.265 Y184.158 E35.66289
G1 X104.024 Y184.071 E35.72082
G1 X101.583 Y183.83 E35.83504
G1 X100.371 Y183.686 E35.89187
G1 X98.065 Y183.343 E36.00043
G1 X96.654 Y183.105 E36.06706
G1 X94.375 Y182.648 E36.17529
G1 X93.102 Y182.366 E36.236
G1 X90.637 Y181.744 E36.35438
G1 X89.473 Y181.422 E36.41062
G1 X87.27 Y180.746 E36.51792
G1 X85.939 Y180.309 E36.58315
G1 X83.598 Y179.461 E36.69909
G1 X82.498 Y179.036 E36.754
G1 X80.194 Y178.068 E36.87037
G1 X79.062 Y177.565 E36.92805
G1 X76.972 Y176.564 E37.03596
G1 X75.717 Y175.934 E37.10134
G1 X73.69 Y174.833 E37.20875
G1 X72.489 Y174.149 E37.27311
G1 X70.399 Y172.876 E37.38706
G1 X69.327 Y172.193 E37.44625
G1 X67.421 Y170.9 E37.55349
G1 X66.307 Y170.111 E37.61706
G1 X64.291 Y168.588 E37.73471
G1 X63.351 Y167.847 E37.79044
G1 X61.477 Y166.279 E37.90422
G1 X60.499 Y165.427 E37.96462
G1 X58.758 Y163.815 E38.0751
G1 X57.792 Y162.884 E38.13757
G1 X56.22 Y161.276 E38.24228
G1 X55.253 Y160.251 E38.3079
G1 X53.62 Y158.406 E38.42263
G1 X52.799 Y157.438 E38.48173
G1 X51.272 Y155.528 E38.5956
G1 X50.523 Y154.551 E38.65292
G1 X49.165 Y152.671 E38.76091
G1 X48.351 Y151.495 E38.82751
G1 X47.015 Y149.43 E38.94203
G1 X46.379 Y148.402 E38.99832
G1 X45.101 Y146.195 E39.11708
G1 X44.552 Y145.199 E39.17003
G1 X43.413 Y142.983 E39.28605
G1 X42.877 Y141.885 E39.34294
G1 X41.865 Y139.653 E39.45706
G1 X41.366 Y138.489 E39.51603
G1 X40.457 Y136.181 E39.63154
G1 X40.032 Y135.033 E39.68854
G1 X39.244 Y132.704 E39.80302
G1 X38.869 Y131.512 E39.86121
G1 X38.23 Y129.257 E39.97035
G1 X37.893 Y127.972 E40.03221
G1 X37.378 Y125.733 E40.13919
G1 X37.073 Y124.284 E40.20814
G1 X36.654 Y121.92 E40.31993
G1 X36.458 Y120.671 E40.3788
G1 X36.149 Y118.234 E40.49319
G1 X36.015 Y116.965 E40.5526
G1 X35.827 Y114.483 E40.66851
G1 X35.76 Y113.282 E40.72452
G1 X35.696 Y110.802 E40.84004
G1 X35.689 Y109.587 E40.89661
G1 X35.748 Y107.084 E41.01319
G1 X35.801 Y105.899 E41.06843
G1 X35.987 Y103.37 E41.18651
G1 X36.095 Y102.219 E41.24034
G1 X36.409 Y99.69 E41.359
G1 X36.572 Y98.568 E41.4118
G1 X37.008 Y96.07 E41.52987
G1 X37.244 Y94.868 E41.58691
G1 X37.787 Y92.478 E41.70104
G1 X38.086 Y91.275 E41.75876
G1 X38.765 Y88.846 E41.8762
G1 X39.112 Y87.703 E41.93182
G1 X39.896 Y85.358 E42.04695
G1 X40.309 Y84.202 E42.10411
G1 X41.22 Y81.873 E42.22056
G1 X41.674 Y80.778 E42.27576
G1 X42.619 Y78.672 E42.38324
G1 X43.238 Y77.363 E42.45067
G1 X44.34 Y75.208 E42.56337
G1 X44.951 Y74.069 E42.62356
G1 X46.184 Y71.93 E42.73852
G1 X46.794 Y70.92 E42.79346
