;FLAVOR:Marlin
;TIME:4010
;Filament used: 10.5726m
;Layer height: 0.32
;MINX:15.457
;MINY:8.428
;MINZ:0.32
;MAXX:204.542
;MAXY:211.581
;MAXZ:14.72
;Generated with Cura_SteamEngine 4.9.1
M140 S50
M105
M190 S50
M82 ;absolute extrusion mode
M201 X500.00 Y500.00 Z100.00 E5000.00 ;Setup machine max acceleration
M203 X500.00 Y500.00 Z10.00 E50.00 ;Setup machine max feedrate
M204 P500.00 R1000.00 T500.00 ;Setup Print/Retract/Travel acceleration
M205 X8.00 Y8.00 Z0.40 E5.00 ;Setup Jerk
M220 S100 ;Reset Feedrate
M221 S100 ;Reset Flowrate

M140 S{material_bed_temperature_layer_1} ;Start heating bed
M104 S200 ;Start heating extruder
M190 S{material_print_temperature_layer_1} ;Wait for bed to reach temp before proceeding

G28 ;Home

M109 S200 ;Wait for extruder to reach temp

G92 E0 ;Reset Extruder
G1 Z2.0 F3000 ;Move Z Axis up
G1 X10.1 Y20 Z0.28 F5000.0 ;Move to start position
G1 X10.1 Y200.0 Z0.28 F1500.0 E15 ;Draw the first line
G1 X10.4 Y200.0 Z0.28 F5000.0 ;Move to side a little
G1 X10.4 Y20 Z0.28 F1500.0 E30 ;Draw the second line
G92 E0 ;Reset Extruder
G1 Z2.0 F3000 ;Move Z Axis up

G92 E0
G92 E0
G1 F2700 E-5
;LAYER_COUNT:46
;LAYER:0
M107
G0 F6000 X40.02 Y39.406 Z0.32
;TYPE:SKIRT
G1 F2700 E0
G1 F1200 X42.076 Y37.214 E0.31986
G1 X42.663 Y36.606 E0.40981
G1 X42.841 Y36.425 E0.43683
G1 X43.237 Y36.034 E0.49606
G1 X45.363 Y33.981 E0.81062
G1 X46.062 Y33.325 E0.91265
G1 X46.276 Y33.129 E0.94353
G1 X46.609 Y32.832 E0.99102
G1 X48.904 Y30.826 E1.31544
G1 X49.583 Y30.249 E1.41028
G1 X49.813 Y30.058 E1.4421
G1 X50.139 Y29.796 E1.48661
G1 X52.557 Y27.885 E1.81463
G1 X53.261 Y27.345 E1.90907
G1 X53.469 Y27.189 E1.93674
G1 X53.846 Y26.914 E1.9864
G1 X56.197 Y25.237 E2.29376
G1 X57.089 Y24.62 E2.4092
G1 X57.529 Y24.326 E2.46552
G1 X60.139 Y22.652 E2.79554
G1 X60.99 Y22.122 E2.90224
G1 X61.258 Y21.96 E2.93557
G1 X61.697 Y21.703 E2.98971
G1 X64.299 Y20.213 E3.30884
G1 X65.073 Y19.783 E3.40308
G1 X65.324 Y19.648 E3.43341
G1 X65.723 Y19.44 E3.4813
G1 X68.455 Y18.051 E3.8075
G1 X69.275 Y17.648 E3.90475
G1 X69.528 Y17.527 E3.93459
G1 X69.919 Y17.348 E3.98036
G1 X72.704 Y16.102 E4.30509
G1 X73.535 Y15.743 E4.40144
G1 X73.825 Y15.622 E4.43488
G1 X74.236 Y15.458 E4.48198
G1 X77.063 Y14.356 E4.80491
G1 X77.884 Y14.049 E4.8982
G1 X78.169 Y13.947 E4.93042
G1 X78.649 Y13.782 E4.98444
G1 X81.518 Y12.826 E5.3063
G1 X82.34 Y12.565 E5.3981
G1 X82.942 Y12.385 E5.46497
G1 X83.111 Y12.336 E5.4837
G1 X85.992 Y11.533 E5.80202
G1 X86.852 Y11.305 E5.89671
G1 X87.151 Y11.23 E5.92952
G1 X87.603 Y11.123 E5.97896
G1 X90.566 Y10.453 E6.30228
G1 X91.411 Y10.274 E6.39421
G1 X91.694 Y10.217 E6.42494
G1 X92.221 Y10.119 E6.48199
G1 X95.216 Y9.595 E6.8056
G1 X96.042 Y9.463 E6.89462
G1 X96.321 Y9.422 E6.92464
G1 X96.777 Y9.361 E6.9736
G1 X99.859 Y8.978 E7.30415
G1 X100.639 Y8.892 E7.38767
G1 X100.936 Y8.863 E7.41943
G1 X101.535 Y8.813 E7.48341
G1 X104.476 Y8.596 E7.79728
G1 X105.389 Y8.541 E7.89462
G1 X105.68 Y8.527 E7.92563
G1 X106.09 Y8.513 E7.9693
G1 X109.189 Y8.437 E8.29923
G1 X110.042 Y8.428 E8.39002
G1 X110.343 Y8.428 E8.42206
G1 X110.811 Y8.436 E8.47187
G1 X113.855 Y8.513 E8.79596
G1 X114.73 Y8.548 E8.88916
G1 X115.009 Y8.562 E8.91889
G1 X115.58 Y8.599 E8.97979
G1 X118.466 Y8.814 E9.28781
G1 X119.421 Y8.898 E9.38984
G1 X119.729 Y8.929 E9.42279
G1 X120.161 Y8.979 E9.46908
G1 X123.034 Y9.337 E9.77722
G1 X124.056 Y9.479 E9.88704
G1 X124.319 Y9.519 E9.91535
G1 X124.831 Y9.603 E9.97058
G1 X127.811 Y10.126 E10.29259
G1 X128.68 Y10.291 E10.38673
G1 X129.003 Y10.356 E10.4218
G1 X129.389 Y10.441 E10.46387
G1 X132.364 Y11.117 E10.78858
G1 X133.252 Y11.332 E10.88582
G1 X133.843 Y11.486 E10.95082
G1 X134.013 Y11.532 E10.96957
G1 X136.885 Y12.337 E11.28702
G1 X137.742 Y12.589 E11.38209
G1 X138.043 Y12.682 E11.41562
G1 X138.504 Y12.831 E11.46719
G1 X141.239 Y13.744 E11.77407
G1 X142.19 Y14.076 E11.88128
G1 X142.754 Y14.285 E11.9453
G1 X142.9 Y14.34 E11.9619
G1 X145.58 Y15.386 E12.2681
G1 X146.556 Y15.782 E12.3802
G1 X146.828 Y15.897 E12.41163
G1 X147.306 Y16.105 E12.46711
G1 X150.08 Y17.349 E12.79069
G1 X150.824 Y17.695 E12.87802
G1 X151.085 Y17.82 E12.90882
G1 X151.494 Y18.023 E12.95741
G1 X154.122 Y19.361 E13.27128
G1 X154.954 Y19.798 E13.37131
G1 X155.228 Y19.947 E13.4045
G1 X155.758 Y20.244 E13.46916
G1 X158.183 Y21.633 E13.7666
G1 X159.081 Y22.165 E13.87769
G1 X159.305 Y22.301 E13.90558
G1 X159.719 Y22.56 E13.95756
G1 X162.288 Y24.208 E14.28241
G1 X163.03 Y24.698 E14.37705
G1 X163.296 Y24.879 E14.41129
G1 X163.62 Y25.107 E14.45346
G1 X166.097 Y26.875 E14.77736
G1 X166.847 Y27.426 E14.87641
G1 X167.066 Y27.591 E14.90559
G1 X167.445 Y27.884 E14.95658
G1 X169.691 Y29.661 E15.2614
G1 X170.513 Y30.329 E15.37413
G1 X170.757 Y30.533 E15.40798
G1 X171.073 Y30.805 E15.45236
G1 X173.391 Y32.834 E15.78023
G1 X173.997 Y33.378 E15.8669
G1 X174.235 Y33.597 E15.90133
G1 X174.623 Y33.966 E15.95832
G1 X176.653 Y35.927 E16.25872
G1 X177.398 Y36.668 E16.37056
G1 X177.59 Y36.863 E16.39968
G1 X177.959 Y37.25 E16.45659
G1 X179.989 Y39.416 E16.77255
G1 X180.594 Y40.079 E16.86807
G1 X180.806 Y40.318 E16.90208
G1 X181.119 Y40.68 E16.95301
G1 X182.929 Y42.814 E17.25083
G1 X183.67 Y43.713 E17.37483
G1 X183.97 Y44.089 E17.42602
G1 X185.862 Y46.556 E17.75692
G1 X186.454 Y47.35 E17.86233
G1 X186.627 Y47.587 E17.89356
G1 X186.97 Y48.073 E17.95687
G1 X188.656 Y50.52 E18.27315
G1 X189.131 Y51.23 E18.36407
G1 X189.571 Y51.917 E18.4509
G1 X191.133 Y54.44 E18.76672
G1 X191.613 Y55.24 E18.86602
G1 X191.75 Y55.475 E18.89497
G1 X191.995 Y55.907 E18.94783
G1 X193.476 Y58.586 E19.27363
G1 X193.871 Y59.325 E19.36281
G1 X194.013 Y59.6 E19.39576
G1 X194.201 Y59.975 E19.4404
G1 X195.549 Y62.728 E19.76665
G1 X195.928 Y63.53 E19.86106
G1 X196.064 Y63.83 E19.89612
G1 X196.263 Y64.283 E19.94878
G1 X197.377 Y66.871 E20.24866
G1 X197.78 Y67.846 E20.36095
G1 X197.872 Y68.075 E20.38721
G1 X198.068 Y68.583 E20.44517
G1 X199.117 Y71.404 E20.7655
G1 X199.405 Y72.211 E20.85669
G1 X199.505 Y72.503 E20.88955
G1 X199.668 Y73.003 E20.94552
G1 X200.548 Y75.785 E21.25607
G1 X200.826 Y76.705 E21.35836
G1 X200.907 Y76.986 E21.38949
G1 X201.052 Y77.515 E21.44787
G1 X201.792 Y80.335 E21.75817
G1 X202.02 Y81.254 E21.85895
G1 X202.149 Y81.813 E21.92001
G1 X202.786 Y84.834 E22.24861
G1 X202.978 Y85.807 E22.35416
G1 X203.035 Y86.117 E22.38771
G1 X203.109 Y86.559 E22.43541
G1 X203.59 Y89.581 E22.7611
G1 X203.711 Y90.41 E22.85026
G1 X203.754 Y90.734 E22.88505
G1 X203.816 Y91.261 E22.94153
G1 X204.139 Y94.226 E23.25897
G1 X204.221 Y95.087 E23.35102
G1 X204.247 Y95.412 E23.38572
G1 X204.279 Y95.886 E23.43628
G1 X204.455 Y98.879 E23.75539
G1 X204.496 Y99.783 E23.8517
G1 X204.506 Y100.094 E23.88482
G1 X204.514 Y100.573 E23.93581
G1 X204.542 Y103.544 E24.25203
G1 X204.538 Y104.497 E24.35346
G1 X204.532 Y104.83 E24.38891
G1 X204.52 Y105.204 E24.42874
G1 X204.406 Y108.082 E24.73529
G1 X204.348 Y109.159 E24.85008
G1 X204.328 Y109.461 E24.8823
G1 X204.29 Y109.933 E24.93269
G1 X204.02 Y112.924 E25.25233
G1 X203.925 Y113.838 E25.35013
G1 X203.889 Y114.142 E25.38271
G1 X203.836 Y114.548 E25.42629
G1 X203.411 Y117.57 E25.75109
G1 X203.269 Y118.488 E25.84996
G1 X203.226 Y118.75 E25.87822
G1 X203.149 Y119.173 E25.92398
G1 X202.567 Y122.212 E26.25331
G1 X202.39 Y123.071 E26.34665
G1 X202.326 Y123.364 E26.37857
G1 X202.228 Y123.783 E26.42437
G1 X201.547 Y126.596 E26.73242
G1 X201.287 Y127.603 E26.84311
G1 X201.215 Y127.871 E26.87264
G1 X201.063 Y128.403 E26.93153
G1 X200.273 Y131.072 E27.22778
G1 X199.936 Y132.154 E27.3484
G1 X199.784 Y132.615 E27.40006
G1 X198.754 Y135.554 E27.73152
G1 X198.413 Y136.489 E27.83745
G1 X198.304 Y136.774 E27.86992
G1 X198.093 Y137.308 E27.93103
G1 X197.031 Y139.914 E28.23054
G1 X196.638 Y140.842 E28.3378
G1 X196.517 Y141.116 E28.36968
G1 X196.299 Y141.596 E28.42579
G1 X195.019 Y144.338 E28.74786
G1 X194.652 Y145.095 E28.8374
G1 X194.523 Y145.353 E28.8681
G1 X194.273 Y145.838 E28.92618
G1 X192.964 Y148.315 E29.22436
G1 X192.453 Y149.252 E29.33795
G1 X192.308 Y149.509 E29.36936
G1 X192.062 Y149.934 E29.42162
G1 X190.612 Y152.376 E29.72389
G1 X189.747 Y153.787 E29.90004
G1 X188.785 Y155.321 E30.09276
G1 X187.524 Y157.465 E30.35749
G1 X186.324 Y159.642 E30.62207
G1 X185.178 Y161.868 E30.88854
G1 X184.102 Y164.113 E31.15351
G1 X183.076 Y166.416 E31.42184
G1 X182.13 Y168.711 E31.68604
G1 X181.264 Y171.001 E31.94662
G1 X180.448 Y173.353 E32.21159
G1 X179.692 Y175.746 E32.47869
G1 X179.016 Y178.123 E32.74171
G1 X178.402 Y180.534 E33.00651
G1 X177.843 Y183.014 E33.27708
G1 X177.379 Y185.409 E33.53673
G1 X176.969 Y187.877 E33.803
G1 X176.637 Y190.309 E34.06425
G1 X176.365 Y192.826 E34.3337
G1 X176.167 Y195.305 E34.59838
G1 X176.039 Y197.792 E34.86343
G1 X175.987 Y199.865 E35.08414
G1 X175.917 Y200.897 E35.19423
G1 X175.769 Y201.866 E35.29856
G1 X175.542 Y202.819 E35.40282
G1 X175.239 Y203.75 E35.50703
G1 X174.861 Y204.654 E35.61132
G1 X174.41 Y205.523 E35.71552
G1 X173.89 Y206.354 E35.81985
G1 X173.304 Y207.138 E35.92403
G1 X172.656 Y207.873 E36.02832
G1 X171.95 Y208.552 E36.13257
G1 X171.191 Y209.171 E36.23681
G1 X170.384 Y209.727 E36.34112
G1 X169.534 Y210.214 E36.44538
G1 X168.648 Y210.631 E36.5496
G1 X167.73 Y210.974 E36.6539
G1 X166.788 Y211.241 E36.75811
G1 X165.827 Y211.431 E36.86238
G1 X164.853 Y211.541 E36.9667
G1 X164.327 Y211.567 E37.02275
G1 X164.007 Y211.576 E37.05682
G1 X163.67 Y211.581 E37.09269
G1 X123.53 Y211.58 E41.36489
G1 X122.833 Y211.57 E41.43908
G1 X121.547 Y211.482 E41.57628
G1 X121.283 Y211.45 E41.60458
G1 X118.745 Y211.162 E41.87644
G1 X116.241 Y210.948 E42.14392
G1 X113.742 Y210.807 E42.41031
G1 X111.277 Y210.737 E42.67278
G1 X108.774 Y210.737 E42.93918
G1 X106.309 Y210.807 E43.20164
G1 X103.811 Y210.948 E43.46793
G1 X101.302 Y211.162 E43.73594
G1 X98.339 Y211.496 E44.05329
G1 X97.365 Y211.565 E44.15722
G1 X97.029 Y211.575 E44.193
G1 X96.672 Y211.58 E44.231
G1 X56.552 Y211.58 E48.50107
G1 X55.854 Y211.571 E48.57536
G1 X54.876 Y211.518 E48.67961
G1 X53.905 Y211.386 E48.7839
G1 X52.949 Y211.175 E48.8881
G1 X52.013 Y210.887 E48.99233
G1 X51.103 Y210.523 E49.09665
G1 X50.226 Y210.087 E49.20089
G1 X49.388 Y209.58 E49.30513
G1 X48.594 Y209.007 E49.40934
G1 X47.849 Y208.37 E49.51367
G1 X47.158 Y207.675 E49.61798
G1 X46.527 Y206.927 E49.72213
G1 X45.959 Y206.129 E49.82638
G1 X45.457 Y205.287 E49.93072
G1 X45.026 Y204.407 E50.03501
G1 X44.668 Y203.495 E50.13929
G1 X44.386 Y202.557 E50.24353
G1 X44.182 Y201.599 E50.34778
G1 X44.056 Y200.628 E50.452
G1 X44.014 Y199.921 E50.52738
G1 X43.979 Y198.707 E50.65664
G1 X43.964 Y198.476 E50.68128
G1 X43.939 Y197.508 E50.78434
G1 X43.803 Y194.992 E51.05251
G1 X43.601 Y192.552 E51.3131
G1 X43.323 Y190.043 E51.58177
G1 X42.979 Y187.586 E51.84582
G1 X42.57 Y185.163 E52.10736
G1 X42.081 Y182.69 E52.37566
G1 X41.533 Y180.287 E52.63798
G1 X40.916 Y177.884 E52.90204
G1 X40.215 Y175.449 E53.17173
G1 X39.461 Y173.088 E53.43552
G1 X38.646 Y170.755 E53.69854
G1 X37.753 Y168.424 E53.96422
G1 X36.807 Y166.145 E54.22684
G1 X35.772 Y163.839 E54.49586
G1 X34.7 Y161.618 E54.75834
G1 X33.544 Y159.389 E55.02559
G1 X32.354 Y157.244 E55.28666
G1 X31.061 Y155.063 E55.55652
G1 X30.065 Y153.472 E55.7563
G1 X29.875 Y153.176 E55.79374
G1 X29.721 Y152.93 E55.82463
G1 X29.492 Y152.551 E55.87175
G1 X27.932 Y149.92 E56.1973
G1 X27.505 Y149.177 E56.28851
G1 X27.358 Y148.914 E56.32058
G1 X27.125 Y148.483 E56.37272
G1 X25.716 Y145.815 E56.69385
G1 X25.312 Y145.024 E56.78838
G1 X25.168 Y144.732 E56.82304
G1 X24.969 Y144.315 E56.87221
G1 X23.679 Y141.548 E57.19714
G1 X23.345 Y140.806 E57.28375
G1 X23.225 Y140.528 E57.31598
G1 X23.025 Y140.05 E57.37113
G1 X21.897 Y137.278 E57.68965
G1 X21.559 Y136.414 E57.78839
G1 X21.453 Y136.133 E57.82036
G1 X21.316 Y135.753 E57.86335
G1 X20.287 Y132.816 E58.19457
G1 X20.014 Y131.997 E58.28645
G1 X19.934 Y131.747 E58.31439
G1 X19.785 Y131.264 E58.36819
G1 X18.936 Y128.395 E58.68663
G1 X18.687 Y127.511 E58.78438
G1 X18.596 Y127.168 E58.82215
G1 X18.504 Y126.796 E58.86294
G1 X17.778 Y123.803 E59.19072
G1 X17.592 Y122.99 E59.27949
G1 X17.534 Y122.722 E59.30867
G1 X17.427 Y122.195 E59.36591
G1 X16.853 Y119.184 E59.69215
G1 X16.711 Y118.374 E59.77967
G1 X16.662 Y118.072 E59.81224
G1 X16.589 Y117.575 E59.8657
G1 X16.166 Y114.543 E60.19153
G1 X16.058 Y113.676 E60.28452
G1 X16.028 Y113.408 E60.31322
G1 X15.973 Y112.863 E60.37152
G1 X15.714 Y109.965 E60.68119
G1 X15.643 Y109.024 E60.78163
G1 X15.625 Y108.739 E60.81202
G1 X15.603 Y108.306 E60.85817
G1 X15.489 Y105.432 E61.1643
G1 X15.461 Y104.365 E61.2779
G1 X15.457 Y104.088 E61.30738
G1 X15.457 Y103.547 E61.36496
G1 X15.486 Y100.608 E61.67778
G1 X15.507 Y99.694 E61.77509
G1 X15.519 Y99.379 E61.80864
G1 X15.544 Y98.877 E61.86213
G1 X15.722 Y95.888 E62.18082
G1 X15.783 Y95.05 E62.27025
G1 X15.808 Y94.754 E62.30187
G1 X15.865 Y94.176 E62.36368
G1 X16.185 Y91.261 E62.6758
G1 X16.299 Y90.331 E62.77552
G1 X16.341 Y90.02 E62.80892
G1 X16.4 Y89.631 E62.8508
G1 X16.862 Y86.738 E63.16261
G1 X17.041 Y85.705 E63.27419
G1 X17.096 Y85.409 E63.30623
G1 X17.171 Y85.038 E63.34652
G1 X17.818 Y81.973 E63.67992
G1 X18.001 Y81.163 E63.76831
G1 X18.064 Y80.897 E63.7974
G1 X18.207 Y80.331 E63.85953
G1 X18.963 Y77.464 E64.17511
G1 X19.205 Y76.596 E64.27101
G1 X19.283 Y76.328 E64.30072
G1 X19.423 Y75.871 E64.35159
G1 X20.326 Y73.028 E64.66907
G1 X20.624 Y72.13 E64.76978
G1 X20.715 Y71.865 E64.7996
G1 X20.879 Y71.41 E64.85107
G1 X21.885 Y68.71 E65.15774
G1 X22.249 Y67.773 E65.26473
G1 X22.361 Y67.494 E65.29673
G1 X22.573 Y66.989 E65.35502
G1 X23.761 Y64.228 E65.67493
G1 X24.093 Y63.483 E65.76174
G1 X24.226 Y63.195 E65.7955
G1 X24.438 Y62.753 E65.84767
G1 X25.783 Y60.009 E66.17292
G1 X26.163 Y59.262 E66.26212
G1 X26.297 Y59.007 E66.29278
G1 X26.571 Y58.501 E66.35403
G1 X28.012 Y55.898 E66.67069
G1 X28.441 Y55.148 E66.76265
G1 X28.595 Y54.886 E66.79499
G1 X28.857 Y54.455 E66.84868
G1 X30.444 Y51.895 E67.16925
G1 X30.907 Y51.17 E67.26081
G1 X31.068 Y50.925 E67.29201
G1 X31.341 Y50.522 E67.34382
G1 X33.064 Y48.027 E67.66653
G1 X33.585 Y47.295 E67.76216
G1 X33.747 Y47.073 E67.79141
G1 X34.012 Y46.72 E67.83839
G1 X35.9 Y44.259 E68.16852
G1 X36.435 Y43.582 E68.26036
G1 X36.62 Y43.353 E68.29169
G1 X36.919 Y42.994 E68.34142
G1 X38.881 Y40.683 E68.66407
G1 X39.453 Y40.028 E68.75662
G1 X39.641 Y39.818 E68.78662
G1 X40.02 Y39.406 E68.8462
G0 F6000 X40.603 Y39.953
G1 F1200 X42.651 Y37.77 E69.16479
G1 X43.238 Y37.162 E69.25474
G1 X43.405 Y36.993 E69.28002
G1 X43.793 Y36.61 E69.33805
G1 X45.911 Y34.564 E69.65148
G1 X46.61 Y33.908 E69.7535
G1 X46.809 Y33.726 E69.78221
G1 X47.136 Y33.434 E69.82887
G1 X49.422 Y31.435 E70.15207
G1 X50.101 Y30.858 E70.24691
G1 X50.545 Y30.496 E70.30788
G1 X53.043 Y28.52 E70.64687
G1 X53.747 Y27.98 E70.74131
G1 X54.193 Y27.65 E70.80036
G1 X56.662 Y25.888 E71.12319
G1 X57.543 Y25.278 E71.23724
G1 X57.97 Y24.993 E71.29188
G1 X60.699 Y23.245 E71.63681
G1 X61.413 Y22.801 E71.7263
G1 X61.662 Y22.65 E71.75729
G1 X62.094 Y22.397 E71.81058
G1 X64.688 Y20.912 E72.1287
G1 X65.462 Y20.482 E72.22294
G1 X65.696 Y20.356 E72.25123
G1 X66.085 Y20.153 E72.29793
G1 X68.808 Y18.769 E72.62303
G1 X69.628 Y18.366 E72.72027
G1 X70.119 Y18.136 E72.77798
G1 X73.021 Y16.836 E73.11642
G1 X73.852 Y16.477 E73.21277
G1 X74.123 Y16.365 E73.24398
G1 X74.527 Y16.203 E73.29031
G1 X77.343 Y15.105 E73.612
G1 X78.164 Y14.798 E73.70529
G1 X78.43 Y14.703 E73.73535
G1 X78.902 Y14.541 E73.78846
G1 X81.761 Y13.588 E74.10921
G1 X82.583 Y13.327 E74.201
G1 X82.802 Y13.26 E74.22538
G1 X83.326 Y13.107 E74.28348
G1 X86.197 Y12.306 E74.60072
G1 X87.057 Y12.078 E74.69541
G1 X87.336 Y12.008 E74.72602
G1 X87.78 Y11.903 E74.77458
G1 X90.732 Y11.235 E75.09672
G1 X91.577 Y11.056 E75.18865
G1 X91.841 Y11.004 E75.21729
G1 X92.359 Y10.907 E75.27338
G1 X95.343 Y10.385 E75.59579
G1 X96.169 Y10.253 E75.68482
G1 X96.429 Y10.215 E75.71279
G1 X96.876 Y10.155 E75.76079
G1 X99.947 Y9.773 E76.09016
G1 X100.727 Y9.687 E76.17368
G1 X101.004 Y9.66 E76.2033
G1 X101.595 Y9.611 E76.26642
G1 X104.525 Y9.394 E76.57912
G1 X105.438 Y9.339 E76.67647
G1 X105.708 Y9.326 E76.70524
G1 X106.11 Y9.312 E76.74805
G1 X109.037 Y9.239 E77.05968
G1 X110.051 Y9.228 E77.16761
G1 X110.332 Y9.228 E77.19752
