;FLAVOR:Marlin
;TIME:9283
;Filament used: 13.8615m
;Layer height: 0.28
;MINX:22.539
;MINY:22.561
;MINZ:0.28
;MAXX:197.491
;MAXY:197.539
;MAXZ:29.96
;TARGET_MACHINE.NAME:Creality Ender-5
;Generated with Cura_SteamEngine 5.5.0
M82 ;absolute extrusion mode
M201 X500.00 Y500.00 Z100.00 E5000.00 ;Setup machine max acceleration
M203 X500.00 Y500.00 Z10.00 E50.00 ;Setup machine max feedrate
M204 P500.00 R1000.00 T500.00 ;Setup Print/Retract/Travel acceleration
M205 X8.00 Y8.00 Z0.40 E5.00 ;Setup Jerk
M220 S100 ;Reset Feedrate
M221 S100 ;Reset Flowrate

M280 P0 S160 ; BLTouch alarm release
G4 P100; delay for BLTouch

M104 S200 ;heat nozzle to default temp set in material settings
M140 S50 ;Start heating bed

G28 ; home all axes
G29; Detailed Z-Probe

M190 S50 ;Wait for bed to reach temp before proceeding
M109 S200 ;Wait for extruder to reach temp before proceeding

G92 E0 ;Reset Extruder
G1 Z2.0 F3000 ;Move Z Axis up
G1 X10.1 Y20 Z0.28 F5000.0 ;Move to start position
G1 X10.1 Y200.0 Z0.28 F1500.0 E15 ;Draw the first line
G1 X10.4 Y200.0 Z0.28 F5000.0 ;Move to side a little
G1 X10.4 Y20 Z0.28 F1500.0 E30 ;Draw the second line
G92 E0 ;Reset Extruder
;Move Z Axis up
G1 Z2.0 F3000
G92 E0
G92 E0
G1 F2700 E-5
;LAYER_COUNT:107
;LAYER:0
M107
G0 F6000 X47.701 Y48.638 Z0.28
;TYPE:SKIRT
G1 F2700 E0
G1 F1200 X49.77 Y46.616 E0.13471
G1 X50.833 Y45.614 E0.20273
G1 X53.156 Y43.56 E0.34712
G1 X54.102 Y42.758 E0.40487
G1 X56.549 Y40.801 E0.55077
G1 X57.518 Y40.061 E0.60754
G1 X60.075 Y38.218 E0.75431
G1 X61.05 Y37.546 E0.80945
G1 X63.679 Y35.843 E0.95531
G1 X64.738 Y35.187 E1.01331
G1 X67.321 Y33.69 E1.15233
G1 X68.529 Y33.02 E1.21665
G1 X71.174 Y31.661 E1.35512
G1 X72.44 Y31.04 E1.42078
G1 X75.086 Y29.842 E1.55603
G1 X76.461 Y29.251 E1.62572
G1 X79.314 Y28.128 E1.76848
G1 X80.478 Y27.697 E1.82628
G1 X83.454 Y26.692 E1.97254
G1 X84.627 Y26.324 E2.02979
G1 X87.459 Y25.523 E2.16683
G1 X88.874 Y25.152 E2.23495
G1 X91.749 Y24.494 E2.37228
G1 X93.104 Y24.209 E2.43676
G1 X96.018 Y23.692 E2.57456
G1 X97.411 Y23.472 E2.64023
G1 X100.472 Y23.086 E2.78389
G1 X101.747 Y22.951 E2.84359
G1 X104.706 Y22.727 E2.98177
G1 X106.086 Y22.647 E3.04614
G1 X109.056 Y22.57 E3.18448
G1 X110.441 Y22.561 E3.24897
G1 X113.43 Y22.631 E3.38819
G1 X114.817 Y22.691 E3.45284
G1 X117.939 Y22.924 E3.59861
G1 X119.137 Y23.036 E3.65464
G1 X122.068 Y23.399 E3.79216
G1 X123.492 Y23.604 E3.85916
G1 X126.419 Y24.116 E3.99752
G1 X127.746 Y24.375 E4.06047
G1 X130.821 Y25.074 E4.20731
G1 X132.016 Y25.371 E4.26465
G1 X134.824 Y26.157 E4.40043
G1 X136.232 Y26.581 E4.4689
G1 X139.162 Y27.561 E4.61276
G1 X140.317 Y27.975 E4.66989
G1 X143.241 Y29.12 E4.81611
G1 X144.37 Y29.588 E4.87302
G1 X147.219 Y30.87 E5.01849
G1 X148.366 Y31.414 E5.07761
G1 X151.135 Y32.831 E5.22244
G1 X152.228 Y33.417 E5.28019
G1 X154.918 Y34.967 E5.42476
G1 X156.016 Y35.63 E5.48448
G1 X158.626 Y37.311 E5.62904
G1 X159.636 Y37.993 E5.68579
G1 X162.151 Y39.797 E5.82991
G1 X163.214 Y40.593 E5.89175
G1 X165.622 Y42.508 E6.03501
G1 X166.574 Y43.299 E6.09264
G1 X168.905 Y45.352 E6.23728
G1 X169.845 Y46.216 E6.29673
G1 X172.028 Y48.341 E6.43859
G1 X172.968 Y49.295 E6.50095
G1 X175.045 Y51.529 E6.64299
G1 X175.884 Y52.468 E6.70162
G1 X177.793 Y54.735 E6.83962
G1 X178.679 Y55.83 E6.90521
G1 X180.579 Y58.332 E7.0515
G1 X181.292 Y59.315 E7.10805
G1 X182.965 Y61.762 E7.24607
G1 X183.739 Y62.941 E7.31175
G1 X185.391 Y65.639 E7.45906
G1 X185.982 Y66.651 E7.51363
G1 X187.505 Y69.439 E7.66155
G1 X187.907 Y70.203 E7.70175
G1 X189.373 Y73.229 E7.85832
G1 X189.92 Y74.419 E7.91931
G1 X191.093 Y77.19 E8.05942
G1 X191.613 Y78.485 E8.1244
G1 X192.682 Y81.418 E8.26976
G1 X193.08 Y82.58 E8.32696
G1 X193.946 Y85.374 E8.46316
G1 X194.353 Y86.777 E8.53118
G1 X195.113 Y89.756 E8.67434
G1 X195.414 Y91.034 E8.73548
G1 X196.029 Y94.061 E8.87931
G1 X196.251 Y95.279 E8.93696
G1 X196.699 Y98.236 E9.07622
G1 X196.879 Y99.605 E9.14052
G1 X197.195 Y102.732 E9.28686
G1 X197.289 Y103.912 E9.34198
G1 X197.451 Y107.079 E9.48964
G1 X197.487 Y108.292 E9.54615
G1 X197.491 Y111.25 E9.68389
G1 X197.467 Y112.661 E9.7496
G1 X197.314 Y115.761 E9.89413
G1 X197.228 Y117.009 E9.95238
G1 X196.94 Y119.918 E10.08849
G1 X196.772 Y121.351 E10.15568
G1 X196.337 Y124.259 E10.29259
G1 X196.096 Y125.683 E10.35984
G1 X195.486 Y128.72 E10.50408
G1 X195.222 Y129.908 E10.56075
G1 X194.45 Y132.954 E10.70707
G1 X194.119 Y134.15 E10.76485
G1 X193.254 Y136.97 E10.9022
G1 X192.806 Y138.333 E10.96901
G1 X191.761 Y141.212 E11.11163
G1 X191.299 Y142.412 E11.1715
G1 X190.084 Y145.302 E11.31748
G1 X189.582 Y146.431 E11.37501
G1 X188.226 Y149.251 E11.52072
G1 X187.665 Y150.363 E11.57871
G1 X186.267 Y152.937 E11.71511
G1 X185.578 Y154.15 E11.78006
G1 X183.955 Y156.809 E11.92512
G1 X183.269 Y157.886 E11.98458
G1 X181.511 Y160.469 E12.13007
G1 X180.796 Y161.474 E12.1875
G1 X178.901 Y163.982 E12.33387
G1 X178.173 Y164.904 E12.38857
G1 X176.187 Y167.277 E12.53266
G1 X175.334 Y168.256 E12.59312
G1 X173.375 Y170.375 E12.7275
G1 X172.328 Y171.463 E12.79781
G1 X170.136 Y173.605 E12.94052
G1 X169.195 Y174.488 E13.00061
G1 X166.869 Y176.544 E13.14516
G1 X165.93 Y177.339 E13.20245
G1 X163.612 Y179.194 E13.34069
G1 X162.512 Y180.038 E13.40525
G1 X159.955 Y181.881 E13.55202
G1 X158.98 Y182.553 E13.60716
G1 X156.35 Y184.257 E13.75308
G1 X155.242 Y184.942 E13.81374
G1 X152.696 Y186.417 E13.95075
G1 X151.506 Y187.075 E14.01407
G1 X148.728 Y188.503 E14.15951
G1 X147.599 Y189.055 E14.21803
G1 X144.791 Y190.327 E14.36157
G1 X143.614 Y190.83 E14.42117
G1 X140.894 Y191.903 E14.55733
G1 X139.515 Y192.416 E14.62584
G1 X136.594 Y193.401 E14.76938
G1 X135.407 Y193.773 E14.8273
G1 X132.418 Y194.618 E14.97194
G1 X131.191 Y194.938 E15.03098
G1 X128.154 Y195.635 E15.17607
G1 X126.925 Y195.89 E15.23452
G1 X124.029 Y196.404 E15.37148
G1 X122.626 Y196.626 E15.43762
G1 X119.716 Y196.995 E15.57421
G1 X118.293 Y197.148 E15.64085
G1 X115.323 Y197.373 E15.77954
G1 X113.943 Y197.453 E15.84391
G1 X110.974 Y197.53 E15.9822
G1 X109.589 Y197.539 E16.04669
G1 X106.6 Y197.469 E16.18591
G1 X105.213 Y197.409 E16.25056
G1 X102.083 Y197.176 E16.39671
G1 X100.896 Y197.063 E16.45223
G1 X97.779 Y196.676 E16.59848
G1 X96.554 Y196.497 E16.65613
G1 X93.459 Y195.955 E16.80244
G1 X92.288 Y195.725 E16.85801
G1 X89.377 Y195.066 E16.99699
G1 X88.014 Y194.728 E17.06238
G1 X85.206 Y193.942 E17.19815
G1 X83.812 Y193.522 E17.26595
G1 X80.849 Y192.532 E17.41141
G1 X79.702 Y192.12 E17.46816
G1 X76.767 Y190.971 E17.61493
G1 X75.65 Y190.508 E17.67123
G1 X72.804 Y189.227 E17.81656
G1 X71.674 Y188.691 E17.8748
G1 X69.054 Y187.354 E18.01176
G1 X67.803 Y186.684 E18.07784
G1 X65.086 Y185.117 E18.22389
G1 X64.047 Y184.49 E18.2804
G1 X61.405 Y182.789 E18.42671
G1 X60.393 Y182.106 E18.48356
G1 X58.011 Y180.399 E18.62002
G1 X56.815 Y179.506 E18.68952
G1 X54.408 Y177.591 E18.83275
G1 X53.456 Y176.8 E18.89038
G1 X51.131 Y174.751 E19.03468
G1 X50.17 Y173.871 E19.09536
G1 X48.109 Y171.864 E19.22931
G1 X47.071 Y170.815 E19.29803
G1 X44.984 Y168.57 E19.44076
G1 X44.143 Y167.628 E19.49956
G1 X42.128 Y165.232 E19.64534
G1 X41.356 Y164.274 E19.70263
G1 X39.565 Y161.918 E19.84043
G1 X38.711 Y160.747 E19.90792
G1 X36.969 Y158.197 E20.05172
G1 X36.295 Y157.164 E20.10915
G1 X34.639 Y154.461 E20.25676
G1 X34.048 Y153.449 E20.31133
G1 X32.596 Y150.792 E20.45232
G1 X31.96 Y149.572 E20.51638
G1 X30.679 Y146.917 E20.65365
G1 X30.096 Y145.649 E20.71863
G1 X28.936 Y142.907 E20.85727
G1 X28.423 Y141.629 E20.92139
G1 X27.345 Y138.674 E21.06786
G1 X26.946 Y137.509 E21.1252
G1 X26.062 Y134.654 E21.26437
G1 X25.688 Y133.367 E21.32678
G1 X24.924 Y130.381 E21.4703
G1 X24.614 Y129.053 E21.5338
G1 X23.999 Y126.03 E21.67744
G1 X23.783 Y124.829 E21.73426
G1 X23.31 Y121.719 E21.88074
G1 X23.154 Y120.526 E21.93677
G1 X22.854 Y117.578 E22.07475
G1 X22.738 Y116.165 E22.14076
G1 X22.579 Y113.021 E22.28735
G1 X22.543 Y111.806 E22.34395
G1 X22.539 Y108.85 E22.48159
G1 X22.563 Y107.439 E22.5473
G1 X22.708 Y104.489 E22.68483
G1 X22.802 Y103.098 E22.74975
G1 X23.094 Y100.148 E22.88779
G1 X23.214 Y99.081 E22.93779
G1 X23.725 Y95.63 E23.10023
G1 X23.928 Y94.449 E23.15603
G1 X24.545 Y91.374 E23.30207
G1 X24.818 Y90.145 E23.36069
G1 X25.537 Y87.307 E23.49702
G1 X25.917 Y85.924 E23.5638
G1 X26.824 Y82.974 E23.70751
G1 X27.22 Y81.773 E23.7664
G1 X28.234 Y78.976 E23.90493
G1 X28.729 Y77.688 E23.96918
G1 X29.88 Y74.949 E24.10752
G1 X30.435 Y73.697 E24.17129
G1 X31.796 Y70.866 E24.31756
G1 X32.356 Y69.757 E24.37541
G1 X33.842 Y67.02 E24.52043
G1 X34.459 Y65.938 E24.57843
G1 X35.99 Y63.426 E24.71541
G1 X36.746 Y62.237 E24.78102
G1 X38.525 Y59.622 E24.92829
G1 X39.229 Y58.634 E24.98478
G1 X41.122 Y56.127 E25.13106
G1 X41.869 Y55.181 E25.18718
G1 X43.844 Y52.822 E25.33044
G1 X44.696 Y51.844 E25.39084
G1 X46.655 Y49.725 E25.52521
G1 X47.701 Y48.638 E25.59546
G0 F6000 X47.981 Y48.924
G1 F1200 X50.044 Y46.907 E25.7298
G1 X51.098 Y45.914 E25.79723
G1 X53.415 Y43.865 E25.94126
G1 X54.352 Y43.07 E25.99848
G1 X56.792 Y41.119 E26.14395
G1 X57.752 Y40.385 E26.20022
G1 X60.302 Y38.547 E26.34659
G1 X61.267 Y37.882 E26.40116
G1 X63.89 Y36.183 E26.54668
G1 X64.939 Y35.533 E26.60414
G1 X67.515 Y34.04 E26.74278
G1 X68.712 Y33.376 E26.80652
G1 X71.35 Y32.02 E26.94463
G1 X72.605 Y31.404 E27.00973
G1 X75.244 Y30.209 E27.14463
G1 X76.607 Y29.623 E27.21371
G1 X79.453 Y28.503 E27.35613
G1 X80.606 Y28.076 E27.41338
G1 X83.574 Y27.074 E27.55924
G1 X84.736 Y26.709 E27.61596
G1 X87.56 Y25.91 E27.75262
G1 X88.963 Y25.542 E27.82016
G1 X91.831 Y24.885 E27.95716
G1 X93.174 Y24.603 E28.02106
G1 X96.08 Y24.087 E28.15849
G1 X97.461 Y23.869 E28.22359
G1 X100.514 Y23.484 E28.36688
G1 X101.777 Y23.35 E28.42602
G1 X104.729 Y23.126 E28.56387
G1 X106.096 Y23.047 E28.62763
G1 X109.059 Y22.97 E28.76565
G1 X110.432 Y22.961 E28.82958
G1 X113.413 Y23.031 E28.96843
G1 X114.787 Y23.09 E29.03247
G1 X117.902 Y23.322 E29.17792
G1 X119.088 Y23.433 E29.23338
G1 X122.011 Y23.795 E29.37053
G1 X123.423 Y23.998 E29.43695
G1 X126.343 Y24.509 E29.57499
G1 X127.657 Y24.765 E29.63732
G1 X130.725 Y25.462 E29.78382
G1 X131.908 Y25.756 E29.84058
G1 X134.709 Y26.54 E29.97602
G1 X136.105 Y26.96 E30.04391
G1 X139.027 Y27.938 E30.18739
G1 X140.171 Y28.347 E30.24396
G1 X143.088 Y29.489 E30.38982
G1 X144.206 Y29.953 E30.44619
G1 X147.048 Y31.232 E30.59131
G1 X148.184 Y31.77 E30.64983
G1 X150.946 Y33.183 E30.7943
G1 X152.028 Y33.764 E30.85148
G1 X154.711 Y35.309 E30.99565
G1 X155.799 Y35.966 E31.05483
G1 X158.402 Y37.642 E31.19899
G1 X159.403 Y38.318 E31.25523
G1 X161.911 Y40.117 E31.39895
G1 X162.965 Y40.906 E31.46026
G1 X165.366 Y42.816 E31.60312
G1 X166.318 Y43.607 E31.66076
G1 X168.634 Y45.646 E31.80444
G1 X169.566 Y46.503 E31.86339
G1 X171.743 Y48.622 E32.00486
G1 X172.675 Y49.567 E32.06666
G1 X174.747 Y51.796 E32.20837
G1 X175.578 Y52.726 E32.26644
G1 X177.482 Y54.987 E32.40408
G1 X178.36 Y56.072 E32.46907
G1 X180.255 Y58.567 E32.61496
G1 X180.962 Y59.541 E32.671
G1 X182.631 Y61.982 E32.80869
G1 X183.398 Y63.15 E32.87376
G1 X185.046 Y65.841 E33.02069
G1 X185.631 Y66.843 E33.07472
G1 X187.151 Y69.626 E33.22238
G1 X187.547 Y70.377 E33.26191
G1 X189.01 Y73.396 E33.41813
G1 X189.552 Y74.575 E33.47855
G1 X190.722 Y77.339 E33.61831
G1 X191.237 Y78.622 E33.68268
G1 X192.304 Y81.548 E33.82771
G1 X192.698 Y82.698 E33.88431
G1 X193.562 Y85.485 E34.02018
G1 X193.965 Y86.876 E34.08761
G1 X194.724 Y89.848 E34.23044
G1 X195.022 Y91.114 E34.291
G1 X195.635 Y94.133 E34.43445
G1 X195.857 Y95.351 E34.4921
G1 X196.302 Y98.288 E34.63042
G1 X196.481 Y99.645 E34.69415
G1 X196.796 Y102.764 E34.84013
G1 X196.89 Y103.932 E34.89469
G1 X197.051 Y107.091 E35.04198
G1 X197.087 Y108.293 E35.09797
G1 X197.091 Y111.243 E35.23534
G1 X197.067 Y112.641 E35.30044
G1 X196.915 Y115.734 E35.44464
G1 X196.83 Y116.97 E35.50233
G1 X196.543 Y119.871 E35.63807
G1 X196.376 Y121.292 E35.70469
G1 X195.943 Y124.192 E35.84123
G1 X195.704 Y125.604 E35.90791
G1 X195.095 Y128.633 E36.05178
G1 X194.834 Y129.81 E36.10791
G1 X194.064 Y132.848 E36.25385
G1 X193.737 Y134.033 E36.31109
G1 X192.874 Y136.845 E36.44806
G1 X192.43 Y138.197 E36.51432
G1 X191.388 Y141.068 E36.65654
G1 X190.93 Y142.257 E36.71587
G1 X189.719 Y145.139 E36.86143
G1 X189.221 Y146.258 E36.91846
G1 X187.869 Y149.071 E37.06379
G1 X187.313 Y150.172 E37.12123
G1 X185.919 Y152.739 E37.25724
G1 X185.23 Y153.952 E37.3222
G1 X183.618 Y156.594 E37.46632
G1 X182.938 Y157.661 E37.52523
G1 X181.185 Y160.237 E37.67032
G1 X180.477 Y161.233 E37.72722
G1 X178.587 Y163.734 E37.87319
G1 X177.866 Y164.647 E37.92736
G1 X175.885 Y167.014 E38.07109
G1 X175.04 Y167.984 E38.13099
G1 X173.081 Y170.103 E38.26536
G1 X172.048 Y171.177 E38.33475
G1 X169.862 Y173.313 E38.47707
G1 X168.93 Y174.188 E38.53659
G1 X166.61 Y176.239 E38.68079
G1 X165.68 Y177.027 E38.73754
G1 X163.369 Y178.877 E38.87539
G1 X162.278 Y179.714 E38.93942
G1 X159.728 Y181.552 E39.08579
G1 X158.763 Y182.217 E39.14036
G1 X156.139 Y183.917 E39.28594
G1 X155.042 Y184.596 E39.34602
G1 X152.502 Y186.067 E39.48269
G1 X151.323 Y186.719 E39.54543
G1 X148.552 Y188.144 E39.69052
G1 X147.434 Y188.691 E39.74847
G1 X144.634 Y189.959 E39.8916
G1 X143.467 Y190.458 E39.9507
G1 X140.754 Y191.528 E40.0865
G1 X139.387 Y192.037 E40.15442
G1 X136.474 Y193.019 E40.29756
G1 X135.298 Y193.388 E40.35495
G1 X132.317 Y194.231 E40.4992
G1 X131.102 Y194.548 E40.55767
G1 X128.073 Y195.243 E40.70238
G1 X126.855 Y195.496 E40.76031
G1 X123.967 Y196.009 E40.89689
G1 X122.576 Y196.229 E40.96247
G1 X119.673 Y196.597 E41.09872
G1 X118.263 Y196.749 E41.16476
G1 X115.3 Y196.974 E41.30313
G1 X113.933 Y197.053 E41.36689
G1 X110.971 Y197.13 E41.50486
G1 X109.598 Y197.139 E41.56879
G1 X106.617 Y197.069 E41.70764
G1 X105.243 Y197.01 E41.77167
G1 X102.121 Y196.778 E41.91745
G1 X100.945 Y196.666 E41.97246
G1 X97.837 Y196.28 E42.11829
G1 X96.623 Y196.103 E42.17542
G1 X93.536 Y195.563 E42.32134
G1 X92.376 Y195.335 E42.37639
G1 X89.473 Y194.678 E42.51498
G1 X88.122 Y194.343 E42.5798
G1 X85.321 Y193.559 E42.71524
G1 X83.939 Y193.143 E42.78244
G1 X80.984 Y192.155 E42.92752
G1 X79.848 Y191.748 E42.98371
G1 X76.92 Y190.602 E43.13013
G1 X75.814 Y190.143 E43.18588
G1 X72.975 Y188.865 E43.33086
G1 X71.856 Y188.335 E43.38851
G1 X69.243 Y187.001 E43.52512
G1 X68.003 Y186.337 E43.59062
G1 X65.293 Y184.775 E43.73627
G1 X64.264 Y184.154 E43.79223
G1 X61.629 Y182.457 E43.93817
G1 X60.626 Y181.781 E43.99449
G1 X58.25 Y180.078 E44.13061
G1 X57.064 Y179.193 E44.19952
G1 X54.664 Y177.283 E44.34234
G1 X53.712 Y176.492 E44.39998
G1 X51.401 Y174.456 E44.54339
G1 X50.449 Y173.584 E44.60351
G1 X48.393 Y171.583 E44.7371
G1 X47.364 Y170.543 E44.80522
G1 X45.282 Y168.304 E44.94759
G1 X44.449 Y167.371 E45.00583
G1 X42.439 Y164.981 E45.15124
G1 X41.674 Y164.032 E45.208
G1 X39.888 Y161.682 E45.34545
G1 X39.041 Y160.521 E45.41236
G1 X37.304 Y157.978 E45.55576
G1 X36.636 Y156.955 E45.61265
G1 X34.984 Y154.259 E45.75989
G1 X34.399 Y153.257 E45.81391
G1 X32.951 Y150.607 E45.95453
G1 X32.32 Y149.398 E46.01803
G1 X31.042 Y146.75 E46.15494
G1 X30.464 Y145.493 E46.21936
G1 X29.307 Y142.758 E46.35764
G1 X28.799 Y141.492 E46.42116
G1 X27.723 Y138.544 E46.56729
G1 X27.328 Y137.391 E46.62404
G1 X26.446 Y134.543 E46.76287
G1 X26.076 Y133.268 E46.82469
G1 X25.312 Y130.282 E46.96821
G1 X25.006 Y128.973 E47.03081
G1 X24.393 Y125.959 E47.17402
G1 X24.178 Y124.769 E47.23033
G1 X23.707 Y121.667 E47.37643
G1 X23.552 Y120.486 E47.43189
G1 X23.253 Y117.545 E47.56954
G1 X23.137 Y116.132 E47.63556
G1 X22.979 Y113.009 E47.78117
G1 X22.943 Y111.805 E47.83726
G1 X22.939 Y108.857 E47.97453
G1 X22.963 Y107.459 E48.03963
G1 X23.107 Y104.516 E48.17684
G1 X23.2 Y103.137 E48.24119
G1 X23.491 Y100.193 E48.37895
G1 X23.61 Y99.14 E48.42829
G1 X24.119 Y95.698 E48.59031
G1 X24.32 Y94.528 E48.64559
G1 X24.936 Y91.461 E48.79125
G1 X25.206 Y90.243 E48.84934
G1 X25.923 Y87.413 E48.98528
G1 X26.299 Y86.042 E49.05148
G1 X27.204 Y83.099 E49.19485
G1 X27.596 Y81.909 E49.25319
G1 X28.607 Y79.12 E49.39133
G1 X29.098 Y77.843 E49.45503
G1 X30.246 Y75.111 E49.59302
G1 X30.796 Y73.87 E49.65623
G1 X32.153 Y71.046 E49.80212
G1 X32.708 Y69.948 E49.85941
G1 X34.19 Y67.218 E50.00405
G1 X34.801 Y66.146 E50.06151
